; generated by Slic3r 1.3.1-dev on 2018-09-07 at 22:04:09

; external perimeters extrusion width = 0.40mm (0.28mm^3/s)
; perimeters extrusion width = 0.40mm (0.57mm^3/s)
; infill extrusion width = 0.40mm (1.14mm^3/s)
; solid infill extrusion width = 0.40mm (0.91mm^3/s)
; top infill extrusion width = 0.40mm (0.45mm^3/s)

M104 S210 ; set temperature
G90
G1 F300 Z1
G1 F1200 X77 Y15
G1 F300 Z0.315
G92 E0
G1 F2520 X77 Y-35 E4
G1 F2520 X77.5 Y-35 E4.05
G1 F2520 X77.5 Y30 E7.4
G1 F5000 X77.25 Y30
G92 E0
G1 F2520 X77.25 Y-35 E4
G1 F2520 X77.75 Y-35 E4.05
G1 F2520 X77.75 Y30 E7.4
G1 F5000 X77 Y0
G1 F300 Z1
G1 X0 Y0 F5000
G92 E0
; Filament gcode

M109 S210 ; set temperature and wait for it to be reached
G21 ; set units to millimeters
G90 ; use absolute coordinates
M82 ; use absolute distances for extrusion
G92 E0
G92 E0
G1 Z0.300 F3600.000
G1 E-2.00000 F18000.00000
G92 E0
G1 Z2.300 F3600.000
G1 X-0.021 Y16.911 F3600.000
G1 Z0.300 F3600.000
G1 E2.00000 F18000.00000
G1 F900
G1 X-1.074 Y19.127 E2.10270
G1 X-1.820 Y19.127 E2.13395
G1 X-2.597 Y17.589 E2.20608
G1 X-0.079 Y16.926 E2.31505
G1 X0.592 Y16.403 F3600.000
G1 F900
G1 X-0.862 Y19.463 E2.45687
G1 X-2.027 Y19.463 E2.50564
G1 X-3.083 Y17.370 E2.60377
G1 X0.534 Y16.418 E2.76034
G1 E0.76034 F18000.00000
G92 E0
G1 Z2.300 F3600.000
G1 X2.672 Y15.712 F3600.000
G1 Z0.300 F3600.000
G1 E2.00000 F18000.00000
G1 F900
G1 X1.045 Y16.231 E2.07149
G1 X-0.650 Y19.799 E2.23681
G1 X-2.234 Y19.798 E2.30310
G1 X-3.606 Y17.079 E2.43060
G1 X-3.298 Y17.079 E2.44349
G1 X2.617 Y15.523 E2.69950
G1 X2.655 Y15.654 E2.70520
G1 E0.70520 F18000.00000
G92 E0
G1 Z2.300 F3600.000
G1 X5.850 Y14.684 F3600.000
G1 Z0.300 F3600.000
G1 E2.00000 F18000.00000
G1 F900
G1 X8.625 Y12.203 E2.15585
G1 X9.182 Y15.824 E2.30922
G1 X8.444 Y16.295 E2.34587
G1 X5.900 Y14.715 E2.47121
G1 X5.139 Y14.637 F3600.000
G1 F900
G1 X5.745 Y14.327 E2.49971
G1 X8.863 Y11.540 E2.67478
G1 X9.547 Y15.990 E2.86322
G1 X8.447 Y16.691 E2.91787
G1 X5.190 Y14.669 E3.07835
G1 E1.07835 F18000.00000
G92 E0
G1 Z2.300 F3600.000
G1 X11.239 Y8.360 F3600.000
G1 Z0.300 F3600.000
G1 E2.00000 F18000.00000
G1 F900
G1 X12.372 Y5.397 E2.13280
G1 X12.973 Y2.233 E2.26761
G1 X13.222 Y-1.663 E2.43102
G1 X12.939 Y-4.113 E2.53425
G1 X12.564 Y-5.341 E2.58799
G1 X12.748 Y-5.404 E2.59612
G1 X13.145 Y-4.375 E2.64230
G1 X17.307 Y-3.095 E2.82459
G1 X17.446 Y-2.222 E2.86160
G1 X13.724 Y0.192 E3.04731
G1 X13.085 Y4.082 E3.21232
G1 X15.974 Y7.514 E3.40012
G1 X15.626 Y8.361 E3.43844
G1 X11.299 Y8.360 E3.61958
G1 E1.61958 F18000.00000
G92 E0
G1 Z2.300 F3600.000
G1 X11.715 Y-7.544 F3600.000
G1 Z0.300 F3600.000
G1 E2.00000 F18000.00000
G1 F900
G1 X11.151 Y-8.744 E2.05551
G1 X9.593 Y-10.811 E2.16387
G1 X8.789 Y-11.627 E2.21179
G1 X12.634 Y-12.729 E2.37923
G1 X13.194 Y-12.108 E2.41421
G1 X11.604 Y-8.371 E2.58418
G1 X11.893 Y-7.620 E2.61787
G1 X11.770 Y-7.568 E2.62350
G1 E0.62350 F18000.00000
G92 E0
G1 Z2.300 F3600.000
G1 X13.586 Y-12.173 F3600.000
G1 Z0.300 F3600.000
G1 E2.00000 F18000.00000
G1 F900
G1 X11.966 Y-8.365 E2.17324
G1 X13.399 Y-4.648 E2.34002
G1 X17.606 Y-3.354 E2.52424
G1 X17.812 Y-2.059 E2.57915
G1 X14.031 Y0.393 E2.76778
G1 X13.441 Y3.984 E2.92012
G1 X16.361 Y7.454 E3.10997
G1 X15.851 Y8.697 E3.16622
G1 X11.265 Y8.695 E3.35819
G1 X9.764 Y10.511 E3.45680
G1 X9.611 Y10.399 E3.46474
G1 X10.817 Y8.523 E3.55809
G1 X12.048 Y5.305 E3.70235
G1 X12.639 Y2.191 E3.83504
G1 X12.885 Y-1.654 E3.99632
G1 X12.609 Y-4.044 E4.09701
G1 X11.907 Y-6.346 E4.19777
G1 X10.862 Y-8.570 E4.30061
G1 X9.338 Y-10.592 E4.40659
G1 X8.256 Y-11.690 E4.47113
G1 X6.913 Y-12.852 E4.54546
G1 X7.022 Y-13.002 E4.55319
G1 X8.751 Y-11.965 E4.63759
G1 X12.743 Y-13.109 E4.81144
G1 X13.546 Y-12.218 E4.86165
G1 E2.86165 F18000.00000
G92 E0
G1 Z2.300 F3600.000
G1 X4.865 Y-14.521 F3600.000
G1 Z0.300 F3600.000
G1 E2.00000 F18000.00000
G1 F900
G1 X3.410 Y-15.191 E2.06707
G1 X1.536 Y-15.855 E2.15030
G1 X1.322 Y-15.888 E2.15936
G1 X3.458 Y-18.301 E2.29425
G1 X4.300 Y-18.056 E2.33098
G1 X4.856 Y-14.580 E2.47831
G1 X5.303 Y-13.913 F3600.000
G1 F900
G1 X5.077 Y-14.054 E2.48946
G1 X3.284 Y-14.880 E2.57210
G1 X1.453 Y-15.528 E2.65339
G1 X0.665 Y-15.652 E2.68680
G1 X3.348 Y-18.683 E2.85625
G1 X4.598 Y-18.318 E2.91078
G1 X5.293 Y-13.972 E3.09503
G1 E1.09503 F18000.00000
G92 E0
G1 Z2.300 F3600.000
G1 X-2.725 Y-15.462 F3600.000
G1 Z0.300 F3600.000
G1 E2.00000 F18000.00000
G1 F900
G1 X-2.725 Y-15.196 E2.01112
G1 X-2.875 Y-15.157 E2.01764
G1 X-3.056 Y-15.481 E2.03318
G1 X-2.784 Y-15.465 E2.04456
G1 X-2.389 Y-15.778 F3600.000
G1 F900
G1 X-2.389 Y-14.211 E2.11015
G1 X-2.172 Y-13.512 E2.14080
G1 X-2.172 Y-13.286 E2.15028
G1 X-2.294 Y-13.103 E2.15947
G1 X-2.722 Y-12.652 E2.18550
G1 X-2.721 Y-13.897 E2.23765
G1 X-3.082 Y-14.838 E2.27983
G1 X-3.544 Y-15.667 E2.31953
G1 X-3.674 Y-15.854 E2.32910
G1 X-2.449 Y-15.782 E2.38049
G1 X-2.053 Y-15.740 F3600.000
G1 F900
G1 X-2.054 Y-14.262 E2.44233
G1 X-1.837 Y-13.563 E2.47297
G1 X-1.837 Y-13.184 E2.48882
G1 X-2.030 Y-12.893 E2.50347
G1 X-2.362 Y-12.543 E2.52365
G1 X-2.912 Y-12.155 E2.55183
G1 X-3.149 Y-12.049 E2.56269
G1 X-3.057 Y-12.346 E2.57568
G1 X-3.057 Y-13.835 E2.63804
G1 X-3.387 Y-14.696 E2.67662
G1 X-3.828 Y-15.489 E2.71461
G1 X-4.378 Y-16.276 E2.75480
G1 X-5.477 Y-17.328 E2.81849
G1 X-6.039 Y-17.713 E2.84702
G1 X-5.937 Y-17.877 E2.85509
G1 X-4.971 Y-17.332 E2.90152
G1 X-4.174 Y-16.675 E2.94475
G1 X-3.765 Y-16.196 E2.97114
G1 X-2.220 Y-16.104 E3.03593
G1 X0.433 Y-15.897 E3.14732
G1 X3.237 Y-19.065 E3.32441
G1 X4.896 Y-18.581 E3.39673
G1 X5.588 Y-14.253 E3.58022
G1 X8.798 Y-12.328 E3.73691
G1 X12.852 Y-13.489 E3.91344
G1 X13.979 Y-12.239 E3.98389
G1 X12.328 Y-8.359 E4.16040
G1 X13.654 Y-4.921 E4.31466
G1 X17.904 Y-3.614 E4.50081
G1 X18.178 Y-1.896 E4.57361
G1 X14.338 Y0.593 E4.76517
G1 X13.797 Y3.886 E4.90483
G1 X16.749 Y7.393 E5.09673
G1 X16.076 Y9.033 E5.17091
G1 X11.423 Y9.031 E5.36568
G1 X9.226 Y11.689 E5.51004
G1 X9.912 Y16.155 E5.69918
G1 X8.449 Y17.088 E5.77183
G1 X5.022 Y14.960 E5.94067
G1 X2.770 Y15.680 E6.03966
G1 X2.699 Y15.509 E6.04743
G1 X5.553 Y14.048 E6.18165
G1 X8.638 Y11.291 E6.35483
G1 X10.516 Y8.371 E6.50015
G1 X11.723 Y5.213 E6.64170
G1 X12.305 Y2.148 E6.77227
G1 X12.548 Y-1.646 E6.93142
G1 X12.279 Y-3.975 E7.02957
G1 X11.593 Y-6.225 E7.12805
G1 X10.573 Y-8.396 E7.22843
G1 X9.083 Y-10.372 E7.33202
G1 X8.026 Y-11.445 E7.39508
G1 X6.498 Y-12.768 E7.47972
G1 X4.917 Y-13.758 E7.55778
G1 X3.157 Y-14.568 E7.63888
G1 X1.370 Y-15.201 E7.71823
G1 X-1.994 Y-15.730 E7.86080
G1 X-1.718 Y-15.347 F3600.000
G1 F900
G1 X-1.718 Y-14.313 E7.90408
G1 X-1.501 Y-13.614 E7.93472
G1 X-1.501 Y-13.083 E7.95694
G1 X-1.766 Y-12.683 E7.97704
G1 X-2.141 Y-12.288 E7.99983
G1 X-2.745 Y-11.862 E8.03077
G1 X-3.396 Y-11.571 E8.06062
G1 X-3.677 Y-11.475 E8.07303
G1 X-3.393 Y-12.396 E8.11337
G1 X-3.392 Y-13.773 E8.17101
G1 X-3.692 Y-14.553 E8.20599
G1 X-4.113 Y-15.311 E8.24228
G1 X-4.634 Y-16.057 E8.28035
G1 X-5.689 Y-17.067 E8.34151
G1 X-6.617 Y-17.702 E8.38858
G1 X-8.155 Y-18.635 E8.46386
G1 X-8.963 Y-18.280 E8.50079
G1 X-8.823 Y-19.122 E8.53651
G1 X-6.960 Y-18.633 E8.61712
G1 X-5.817 Y-18.194 E8.66838
G1 X-4.780 Y-17.610 E8.71819
G1 X-3.938 Y-16.915 E8.76389
G1 X-3.602 Y-16.522 E8.78552
G1 X-2.197 Y-16.439 E8.84447
G1 X0.293 Y-16.245 E8.94899
G1 X3.127 Y-19.447 E9.12800
G1 X5.194 Y-18.844 E9.21812
G1 X5.895 Y-14.460 E9.40395
G1 X8.846 Y-12.690 E9.54799
G1 X12.961 Y-13.870 E9.72719
G1 X14.372 Y-12.305 E9.81538
G1 X12.690 Y-8.353 E9.99516
G1 X13.908 Y-5.193 E10.13690
G1 X18.203 Y-3.873 E10.32498
G1 X18.543 Y-1.733 E10.41567
G1 X14.645 Y0.794 E10.61015
G1 X14.154 Y3.788 E10.73714
G1 X17.137 Y7.333 E10.93109
G1 X16.300 Y9.368 E11.02320
G1 X11.581 Y9.367 E11.22077
G1 X9.580 Y11.787 E11.35221
G1 X10.277 Y16.320 E11.54421
G1 X8.451 Y17.484 E11.63487
G1 X4.977 Y15.327 E11.80606
G1 X1.286 Y16.507 E11.96827
G1 X-0.438 Y20.134 E12.13639
G1 X-2.440 Y20.134 E12.22021
G1 X-4.151 Y16.743 E12.37918
G1 X-3.341 Y16.743 E12.41309
G1 X2.607 Y15.179 E12.67055
G1 X5.362 Y13.769 E12.80010
G1 X8.380 Y11.072 E12.96955
G1 X10.214 Y8.219 E13.11151
G1 X11.399 Y5.121 E13.25036
G1 X11.972 Y2.106 E13.37881
G1 X12.211 Y-1.637 E13.53582
G1 X11.949 Y-3.906 E13.63145
G1 X11.279 Y-6.104 E13.72764
G1 X10.284 Y-8.222 E13.82556
G1 X8.829 Y-10.152 E13.92676
G1 X7.796 Y-11.200 E13.98833
G1 X6.297 Y-12.498 E14.07133
G1 X4.757 Y-13.462 E14.14740
G1 X3.031 Y-14.257 E14.22697
G1 X1.288 Y-14.875 E14.30438
G1 X-1.658 Y-15.338 E14.42922
G1 E12.42922 F18000.00000
G92 E0
G1 Z2.300 F3600.000
G1 X-12.137 Y-3.747 F3600.000
G1 Z0.300 F3600.000
G1 E2.00000 F18000.00000
G1 F900
G1 X-12.094 Y-3.602 E2.00631
G1 X-12.344 Y-3.442 E2.01871
G1 X-12.572 Y-3.747 E2.03465
G1 X-12.197 Y-3.747 E2.05035
G1 E0.05035 F18000.00000
G92 E0
G1 Z2.300 F3600.000
G1 X-7.278 Y-5.642 F3600.000
G1 Z0.300 F3600.000
G1 E2.00000 F18000.00000
G1 F900
G1 X-6.869 Y-5.799 E2.01833
G1 X-6.869 Y-5.477 E2.03178
G1 X-7.248 Y-5.477 E2.04762
G1 X-7.267 Y-5.583 E2.05213
G1 X-5.484 Y-6.205 F3600.000
G1 F900
G1 X-4.042 Y-6.487 E2.11362
G1 X-3.100 Y-6.506 E2.15307
G1 X-3.100 Y-5.884 E2.17912
G1 X-3.918 Y-6.023 E2.21383
G1 X-5.466 Y-6.023 E2.27866
G1 X-5.478 Y-6.145 E2.28380
G1 X-6.534 Y-5.688 F3600.000
G1 F900
G1 X-6.534 Y-4.989 E2.31305
G1 X-7.008 Y-5.142 E2.33391
G1 X-8.103 Y-5.142 E2.37976
G1 X-9.035 Y-4.930 E2.41974
G1 X-9.628 Y-4.737 E2.44586
G1 X-9.700 Y-4.908 E2.45364
G1 X-8.453 Y-5.552 E2.51236
G1 X-6.889 Y-6.151 E2.58248
G1 X-5.695 Y-6.506 E2.63461
G1 X-4.078 Y-6.822 E2.70358
G1 X-1.770 Y-6.869 E2.80022
G1 X-0.868 Y-6.691 E2.83872
G1 X-0.891 Y-6.504 E2.84659
G1 X-2.764 Y-6.612 E2.92513
G1 X-2.765 Y-5.458 E2.97345
G1 X-2.893 Y-5.508 E2.97920
G1 X-3.946 Y-5.687 E3.02393
G1 X-6.474 Y-5.688 E3.12973
G1 X-6.198 Y-5.352 F3600.000
G1 F900
G1 X-6.198 Y-4.528 E3.16423
G1 X-7.061 Y-4.806 E3.20216
G1 X-8.066 Y-4.807 E3.24422
G1 X-8.945 Y-4.607 E3.28197
G1 X-10.230 Y-4.187 E3.33857
G1 X-11.506 Y-3.581 E3.39770
G1 X-12.425 Y-2.991 E3.44342
G1 X-13.202 Y-4.029 E3.49767
G1 X-13.475 Y-4.821 E3.53274
G1 X-13.498 Y-5.161 E3.54701
G1 X-13.352 Y-5.211 E3.55345
G1 X-13.168 Y-4.941 E3.56717
G1 X-12.862 Y-4.562 E3.58754
G1 X-12.282 Y-4.083 E3.61904
G1 X-11.764 Y-4.083 E3.64073
G1 X-9.989 Y-5.136 E3.72712
G1 X-8.591 Y-5.859 E3.79300
G1 X-6.997 Y-6.469 E3.86445
G1 X-5.776 Y-6.832 E3.91779
G1 X-4.114 Y-7.157 E3.98865
G1 X-1.741 Y-7.205 E4.08803
G1 X-0.484 Y-6.957 E4.14166
G1 X0.160 Y-6.788 E4.16949
G1 X1.172 Y-6.454 E4.21413
G1 X2.052 Y-6.086 E4.25406
G1 X3.129 Y-5.459 E4.30620
G1 X3.478 Y-5.215 E4.32407
G1 X3.395 Y-5.057 E4.33154
G1 X2.317 Y-5.474 E4.37988
G1 X0.601 Y-5.964 E4.45463
G1 X-0.471 Y-6.144 E4.50010
G1 X-2.429 Y-6.257 E4.58221
G1 X-2.429 Y-4.967 E4.63621
G1 X-2.983 Y-5.183 E4.66108
G1 X-3.975 Y-5.351 E4.70320
G1 X-6.138 Y-5.352 E4.79376
G1 E2.79376 F18000.00000
G92 E0
G1 Z2.300 F3600.000
G1 X-7.830 Y1.999 F3600.000
G1 Z0.300 F3600.000
G1 E2.00000 F18000.00000
G1 F900
G1 X-7.749 Y2.175 E2.00813
G1 X-8.479 Y2.491 E2.04141
G1 X-8.564 Y2.326 E2.04920
G1 X-8.442 Y2.251 E2.05519
G1 X-7.885 Y2.021 E2.08041
G1 E0.08041 F18000.00000
G92 E0
G1 Z2.300 F3600.000
G1 X-5.752 Y1.025 F3600.000
G1 Z0.300 F3600.000
G1 E2.00000 F18000.00000
G1 F900
G1 X-5.871 Y0.894 E2.00742
G1 X-5.094 Y-0.017 E2.05755
G1 X-4.600 Y-0.930 E2.10098
G1 X-4.418 Y-2.078 E2.14965
G1 X-4.418 Y-2.642 E2.17326
G1 X-4.200 Y-2.431 E2.18596
G1 X-3.836 Y-1.893 E2.21316
G1 X-3.716 Y-1.458 E2.23205
G1 X-3.855 Y-0.846 E2.25832
G1 X-4.136 Y-0.389 E2.28077
G1 X-5.078 Y0.554 E2.33655
G1 X-5.703 Y0.990 E2.36848
G1 E0.36848 F18000.00000
G92 E0
G1 Z2.300 F3600.000
G1 X-4.927 Y-3.321 F3600.000
G1 Z0.300 F3600.000
G1 E2.00000 F18000.00000
G1 F900
G1 X-4.808 Y-3.411 E2.00627
G1 X-4.483 Y-3.173 E2.02313
G1 X-3.942 Y-2.648 E2.05469
G1 X-3.527 Y-2.035 E2.08565
G1 X-3.370 Y-1.466 E2.11039
G1 X-3.540 Y-0.718 E2.14251
G1 X-3.871 Y-0.180 E2.16893
G1 X-4.861 Y0.812 E2.22760
G1 X-5.744 Y1.428 E2.27268
G1 X-6.628 Y1.990 E2.31652
G1 X-7.733 Y2.542 E2.36821
G1 X-8.694 Y2.946 E2.41187
G1 X-9.624 Y3.293 E2.45341
G1 X-10.805 Y3.646 E2.50502
G1 X-11.866 Y3.882 E2.55050
G1 X-12.234 Y3.939 E2.56611
G1 X-12.275 Y3.755 E2.57402
G1 X-11.451 Y3.515 E2.60996
G1 X-10.103 Y2.880 E2.67233
G1 X-8.595 Y1.951 E2.74647
G1 X-7.024 Y1.304 E2.81757
G1 X-6.113 Y0.660 E2.86429
G1 X-5.372 Y-0.208 E2.91208
G1 X-4.923 Y-1.039 E2.95161
G1 X-4.754 Y-2.105 E2.99678
G1 X-4.754 Y-2.852 E3.02805
G1 X-4.906 Y-3.265 E3.04649
G1 E1.04649 F18000.00000
G92 E0
G1 Z2.300 F3600.000
G1 X-13.181 Y-8.218 F3600.000
G1 Z0.300 F3600.000
G1 E2.00000 F18000.00000
G1 F900
G1 X-13.561 Y-7.926 E2.02007
G1 X-13.561 Y-8.240 E2.03323
G1 X-13.241 Y-8.222 E2.04664
G1 E0.04664 F18000.00000
G92 E0
G1 Z2.300 F3600.000
G1 X-17.348 Y-1.622 F3600.000
G1 Z0.300 F3600.000
G1 E2.00000 F18000.00000
G1 F900
G1 X-17.152 Y-1.451 E2.01088
G1 X-16.996 Y-1.209 E2.02293
G1 X-17.132 Y-1.094 E2.03034
G1 X-17.483 Y-1.416 E2.05030
G1 X-17.677 Y-1.567 E2.06056
G1 X-17.590 Y-1.718 E2.06788
G1 X-17.404 Y-1.644 E2.07627
G1 E0.07627 F18000.00000
G92 E0
G1 Z2.300 F3600.000
G1 X-9.153 Y-14.935 F3600.000
G1 Z0.300 F3600.000
G1 E2.00000 F18000.00000
G1 F900
G1 X-9.153 Y-16.241 E2.05467
G1 X-8.985 Y-16.269 E2.06179
G1 X-8.513 Y-14.917 E2.12175
G1 X-8.356 Y-14.518 E2.13969
G1 X-9.136 Y-14.569 E2.17241
G1 X-10.323 Y-14.482 E2.22224
G1 X-11.317 Y-14.059 E2.26746
G1 X-11.410 Y-14.198 E2.27444
G1 X-11.148 Y-14.455 E2.28981
G1 X-10.672 Y-14.775 E2.31381
G1 X-10.317 Y-14.935 E2.33012
G1 X-9.213 Y-14.935 E2.37633
G1 X-9.489 Y-15.271 F3600.000
G1 F900
G1 X-9.488 Y-16.395 E2.42338
G1 X-9.397 Y-17.719 E2.47892
G1 X-9.093 Y-19.540 E2.55623
G1 X-6.857 Y-18.953 E2.65301
G1 X-5.673 Y-18.499 E2.70607
G1 X-4.590 Y-17.888 E2.75816
G1 X-3.702 Y-17.156 E2.80632
G1 X-3.440 Y-16.849 E2.82320
G1 X-2.174 Y-16.774 E2.87630
G1 X0.152 Y-16.592 E2.97397
G1 X3.017 Y-19.829 E3.15489
G1 X5.492 Y-19.106 E3.26280
G1 X6.202 Y-14.667 E3.45097
G1 X8.894 Y-13.053 E3.58238
G1 X13.070 Y-14.250 E3.76425
G1 X14.764 Y-12.370 E3.87018
G1 X13.052 Y-8.346 E4.05322
G1 X14.163 Y-5.466 E4.18243
G1 X18.501 Y-4.132 E4.37245
G1 X18.909 Y-1.571 E4.48103
G1 X14.952 Y0.995 E4.67844
G1 X14.510 Y3.690 E4.79275
G1 X17.525 Y7.272 E4.98875
G1 X16.525 Y9.704 E5.09879
G1 X11.739 Y9.702 E5.29917
G1 X9.935 Y11.885 E5.41768
G1 X10.642 Y16.486 E5.61255
G1 X8.454 Y17.881 E5.72121
G1 X4.932 Y15.694 E5.89475
G1 X1.526 Y16.782 E6.04439
G1 X-0.226 Y20.470 E6.21530
G1 X-2.647 Y20.469 E6.31664
G1 X-4.277 Y17.239 E6.46809
G1 X-6.656 Y16.959 E6.56835
G1 X-8.267 Y16.585 E6.63761
G1 X-8.247 Y16.406 E6.64513
G1 X-3.385 Y16.408 E6.84866
G1 X2.487 Y14.863 E7.10279
G1 X5.171 Y13.490 E7.22900
G1 X8.123 Y10.852 E7.39473
G1 X9.913 Y8.067 E7.53333
G1 X11.075 Y5.029 E7.66948
G1 X11.638 Y2.064 E7.79580
G1 X11.874 Y-1.629 E7.95069
G1 X11.619 Y-3.838 E8.04378
G1 X10.965 Y-5.983 E8.13769
G1 X9.995 Y-8.047 E8.23314
G1 X8.574 Y-9.932 E8.33196
G1 X7.567 Y-10.955 E8.39204
G1 X6.097 Y-12.227 E8.47340
G1 X4.597 Y-13.166 E8.54749
G1 X2.904 Y-13.946 E8.62551
G1 X1.205 Y-14.548 E8.70098
G1 X-1.382 Y-14.955 E8.81061
G1 X-1.382 Y-14.364 E8.83533
G1 X-1.165 Y-13.665 E8.86598
G1 X-1.166 Y-12.982 E8.89456
G1 X-1.503 Y-12.473 E8.92012
G1 X-1.921 Y-12.033 E8.94552
G1 X-2.578 Y-11.569 E8.97921
G1 X-3.273 Y-11.258 E9.01108
G1 X-3.986 Y-11.015 E9.04259
G1 X-4.226 Y-11.015 E9.05267
G1 X-4.033 Y-11.459 E9.07294
G1 X-3.729 Y-12.447 E9.11620
G1 X-3.728 Y-13.711 E9.16913
G1 X-3.996 Y-14.411 E9.20050
G1 X-4.398 Y-15.133 E9.23508
G1 X-4.890 Y-15.837 E9.27105
G1 X-5.902 Y-16.805 E9.32966
G1 X-6.799 Y-17.420 E9.37519
G1 X-8.180 Y-18.257 E9.44278
G1 X-8.787 Y-17.991 E9.47056
G1 X-8.788 Y-16.722 E9.52365
G1 X-8.198 Y-15.034 E9.59852
G1 X-7.827 Y-14.091 E9.64096
G1 X-8.095 Y-14.165 E9.65261
G1 X-9.135 Y-14.233 E9.69622
G1 X-10.243 Y-14.152 E9.74275
G1 X-11.065 Y-13.802 E9.78013
G1 X-11.753 Y-13.227 E9.81769
G1 X-12.388 Y-12.300 E9.86471
G1 X-13.751 Y-10.606 E9.95573
G1 X-15.853 Y-7.557 E10.11075
G1 X-17.014 Y-5.580 E10.20671
G1 X-17.649 Y-4.749 E10.25052
G1 X-18.121 Y-3.634 E10.30117
G1 X-18.121 Y-2.673 E10.34141
G1 X-17.819 Y-2.172 E10.36591
G1 X-17.170 Y-1.912 E10.39518
G1 X-16.896 Y-1.672 E10.41043
G1 X-16.508 Y-1.070 E10.44042
