; generated by Slic3r 1.3.1-dev on 2018-09-07 at 21:58:33

; external perimeters extrusion width = 0.40mm (0.28mm^3/s)
; perimeters extrusion width = 0.40mm (0.57mm^3/s)
; infill extrusion width = 0.40mm (1.14mm^3/s)
; solid infill extrusion width = 0.40mm (0.91mm^3/s)
; top infill extrusion width = 0.40mm (0.45mm^3/s)

M104 S210 ; set temperature
G90
G1 F300 Z1
G1 F1200 X77 Y15
G1 F300 Z0.315
G92 E0
G1 F2520 X77 Y-35 E4
G1 F2520 X77.5 Y-35 E4.05
G1 F2520 X77.5 Y30 E7.4
G1 F5000 X77.25 Y30
G92 E0
G1 F2520 X77.25 Y-35 E4
G1 F2520 X77.75 Y-35 E4.05
G1 F2520 X77.75 Y30 E7.4
G1 F5000 X77 Y0
G1 F300 Z1
G1 X0 Y0 F5000
G92 E0
; Filament gcode

M109 S210 ; set temperature and wait for it to be reached
G21 ; set units to millimeters
G90 ; use absolute coordinates
M82 ; use absolute distances for extrusion
G92 E0
G92 E0
G1 Z0.300 F3600.000
G1 E-2.00000 F18000.00000
G92 E0
G1 Z2.300 F3600.000
G1 X-0.285 Y8.833 F3600.000
G1 Z0.300 F3600.000
G1 E2.00000 F18000.00000
G1 F900
G1 X-0.632 Y9.564 E2.03387
G1 X-0.818 Y9.564 E2.04166
G1 X-1.081 Y9.042 E2.06610
G1 X-0.343 Y8.848 E2.09806
G1 X0.329 Y8.324 F3600.000
G1 F900
G1 X-0.420 Y9.899 E2.17104
G1 X-1.024 Y9.899 E2.19636
G1 X-1.567 Y8.823 E2.24681
G1 X0.271 Y8.340 E2.32636
G1 E0.32636 F18000.00000
G92 E0
G1 Z2.300 F3600.000
G1 X3.174 Y7.470 F3600.000
G1 Z0.300 F3600.000
G1 E2.00000 F18000.00000
G1 F900
G1 X4.207 Y6.548 E2.05796
G1 X4.428 Y7.988 E2.11898
G1 X4.221 Y8.120 E2.12925
G1 X3.225 Y7.502 E2.17833
G1 X2.533 Y7.467 F3600.000
G1 F900
G1 X2.862 Y7.299 E2.19380
G1 X4.444 Y5.885 E2.28261
G1 X4.793 Y8.154 E2.37869
G1 X4.223 Y8.517 E2.40697
G1 X2.584 Y7.499 E2.48775
G1 E0.48775 F18000.00000
G92 E0
G1 Z2.300 F3600.000
G1 X6.325 Y3.845 F3600.000
G1 Z0.300 F3600.000
G1 E2.00000 F18000.00000
G1 F900
G1 X6.629 Y3.048 E2.03568
G1 X7.300 Y3.845 E2.07926
G1 X6.385 Y3.845 E2.11756
G1 X5.837 Y4.180 F3600.000
G1 F900
G1 X6.331 Y2.889 E2.17539
G1 X6.442 Y2.304 E2.20033
G1 X7.814 Y3.934 E2.28951
G1 X7.712 Y4.181 E2.30066
G1 X5.897 Y4.180 E2.37664
G1 E0.37664 F18000.00000
G92 E0
G1 Z2.300 F3600.000
G1 X7.084 Y-0.477 F3600.000
G1 Z0.300 F3600.000
G1 E2.00000 F18000.00000
G1 F900
G1 X7.098 Y-0.694 E2.00909
G1 X7.018 Y-1.392 E2.03853
G1 X8.020 Y-1.084 E2.08245
G1 X7.135 Y-0.510 E2.12663
G1 X6.707 Y0.168 F3600.000
G1 F900
G1 X6.761 Y-0.685 E2.16241
G1 X6.625 Y-1.864 E2.21209
G1 X8.520 Y-1.282 E2.29507
G1 X8.560 Y-1.034 E2.30558
G1 X6.757 Y0.135 E2.39550
G1 E0.39550 F18000.00000
G92 E0
G1 Z2.300 F3600.000
G1 X5.653 Y-4.926 F3600.000
G1 Z0.300 F3600.000
G1 E2.00000 F18000.00000
G1 F900
G1 X5.286 Y-5.414 E2.02556
G1 X5.940 Y-5.601 E2.05407
G1 X5.677 Y-4.981 E2.08227
G1 X5.735 Y-4.260 F3600.000
G1 F900
G1 X4.910 Y-5.354 E2.13960
G1 X4.679 Y-5.589 E2.15340
G1 X6.268 Y-6.044 E2.22262
G1 X6.421 Y-5.875 E2.23218
G1 X5.758 Y-4.316 E2.30310
G1 X6.814 Y-5.940 F3600.000
G1 F900
G1 X6.002 Y-4.032 E2.38990
G1 X6.713 Y-2.188 E2.47262
G1 X8.819 Y-1.541 E2.56484
G1 X8.925 Y-0.871 E2.59324
G1 X7.032 Y0.357 E2.68771
G1 X6.740 Y2.137 E2.76321
G1 X8.201 Y3.874 E2.85824
G1 X7.937 Y4.516 E2.88732
G1 X5.641 Y4.516 E2.98345
G1 X5.212 Y5.034 E3.01161
G1 X5.059 Y4.922 E3.01955
G1 X5.392 Y4.404 E3.04535
G1 X6.007 Y2.798 E3.11733
G1 X6.302 Y1.243 E3.18356
G1 X6.425 Y-0.677 E3.26409
G1 X6.287 Y-1.868 E3.31430
G1 X5.937 Y-3.017 E3.36456
G1 X5.416 Y-4.126 E3.41585
G1 X4.656 Y-5.134 E3.46871
G1 X4.116 Y-5.682 E3.50090
G1 X3.693 Y-6.048 E3.52432
G1 X3.801 Y-6.198 E3.53205
G1 X4.378 Y-5.852 E3.56019
G1 X6.377 Y-6.425 E3.64726
G1 X6.774 Y-5.985 E3.67205
G1 E1.67205 F18000.00000
G92 E0
G1 Z2.300 F3600.000
G1 X2.240 Y-7.364 F3600.000
G1 Z0.300 F3600.000
G1 E2.00000 F18000.00000
G1 F900
G1 X1.762 Y-7.585 E2.02206
G1 X0.935 Y-7.877 E2.05877
G1 X1.778 Y-8.830 E2.11202
G1 X2.017 Y-8.760 E2.12243
G1 X2.231 Y-7.423 E2.17911
G1 X2.671 Y-6.796 F3600.000
G1 F900
G1 X1.635 Y-7.273 E2.22684
G1 X0.722 Y-7.597 E2.26739
G1 X0.297 Y-7.663 E2.28538
G1 X1.668 Y-9.212 E2.37194
G1 X2.315 Y-9.023 E2.40015
G1 X2.661 Y-6.856 E2.49203
G1 E0.49203 F18000.00000
G92 E0
G1 Z2.300 F3600.000
G1 X-1.177 Y-7.750 F3600.000
G1 Z0.300 F3600.000
G1 E2.00000 F18000.00000
G1 F900
G1 X-1.177 Y-6.958 E2.03312
G1 X-1.068 Y-6.609 E2.04845
G1 X-1.068 Y-6.487 E2.05353
G1 X-1.133 Y-6.390 E2.05841
G1 X-1.379 Y-6.131 E2.07336
G1 X-1.378 Y-6.777 E2.10038
G1 X-1.555 Y-7.258 E2.12184
G1 X-1.856 Y-7.797 E2.14769
G1 X-1.236 Y-7.754 E2.17368
G1 X-0.841 Y-7.503 F3600.000
G1 F900
G1 X-0.841 Y-7.009 E2.19434
G1 X-0.733 Y-6.660 E2.20966
G1 X-0.733 Y-6.386 E2.22111
G1 X-0.869 Y-6.180 E2.23145
G1 X-1.059 Y-5.981 E2.24298
G1 X-1.364 Y-5.765 E2.25859
G1 X-1.872 Y-5.538 E2.28192
G1 X-1.714 Y-6.051 E2.30438
G1 X-1.714 Y-6.717 E2.33227
G1 X-1.861 Y-7.118 E2.35013
G1 X-2.072 Y-7.496 E2.36826
G1 X-2.330 Y-7.867 E2.38719
G1 X-2.856 Y-8.370 E2.41763
G1 X-3.318 Y-8.686 E2.44108
G1 X-4.079 Y-9.147 E2.47831
G1 X-4.504 Y-8.961 E2.49777
G1 X-4.426 Y-9.433 E2.51782
G1 X-3.474 Y-9.184 E2.55899
G1 X-2.901 Y-8.963 E2.58471
G1 X-2.380 Y-8.670 E2.60974
G1 X-1.957 Y-8.320 E2.63272
G1 X-1.793 Y-8.130 E2.64323
G1 X0.141 Y-7.993 E2.72441
G1 X1.558 Y-9.594 E2.81387
G1 X2.613 Y-9.286 E2.85988
G1 X2.964 Y-7.091 E2.95292
G1 X4.426 Y-6.214 E3.02427
G1 X6.486 Y-6.805 E3.11401
G1 X7.207 Y-6.006 E3.15905
G1 X6.364 Y-4.026 E3.24911
G1 X6.968 Y-2.461 E3.31931
G1 X9.117 Y-1.800 E3.41346
G1 X9.291 Y-0.708 E3.45975
G1 X7.339 Y0.558 E3.55715
G1 X7.096 Y2.039 E3.61997
G1 X8.589 Y3.813 E3.71705
G1 X8.162 Y4.852 E3.76406
G1 X5.799 Y4.851 E3.86300
G1 X4.809 Y6.049 E3.92803
G1 X5.158 Y8.319 E4.02418
G1 X4.226 Y8.913 E4.07047
G1 X2.486 Y7.833 E4.15618
G1 X0.656 Y8.418 E4.23663
G1 X-0.208 Y10.235 E4.32083
G1 X-1.231 Y10.235 E4.36367
G1 X-2.104 Y8.504 E4.44483
G1 X-1.673 Y8.504 E4.46290
G1 X1.297 Y7.723 E4.59145
G1 X2.671 Y7.020 E4.65605
G1 X4.177 Y5.674 E4.74058
G1 X5.091 Y4.251 E4.81138
G1 X5.682 Y2.706 E4.88066
G1 X5.968 Y1.201 E4.94477
G1 X6.088 Y-0.668 E5.02317
G1 X5.957 Y-1.800 E5.07084
G1 X5.623 Y-2.896 E5.11882
G1 X5.127 Y-3.952 E5.16765
G1 X4.401 Y-4.914 E5.21812
G1 X3.886 Y-5.437 E5.24882
G1 X3.138 Y-6.084 E5.29024
G1 X2.370 Y-6.565 E5.32817
G1 X1.509 Y-6.962 E5.36787
G1 X0.639 Y-7.270 E5.40647
G1 X-0.782 Y-7.493 E5.46670
G1 X-1.240 Y-7.533 F3600.000
G1 E3.46670 F18000.00000
G92 E0
G1 Z2.300 F3600.000
G1 X-3.238 Y-2.844 F3600.000
G1 Z0.300 F3600.000
G1 E2.00000 F18000.00000
G1 F900
G1 X-3.318 Y-2.518 E2.01401
G1 X-3.532 Y-2.587 E2.02340
G1 X-3.535 Y-2.730 E2.02937
G1 X-3.294 Y-2.822 E2.04017
G1 X-2.461 Y-3.026 F3600.000
G1 F900
G1 X-2.023 Y-3.111 E2.05885
G1 X-1.407 Y-3.124 E2.08466
G1 X-1.500 Y-2.765 E2.10017
G1 X-1.960 Y-2.843 E2.11972
G1 X-2.443 Y-2.844 E2.13994
G1 X-2.455 Y-2.966 E2.14508
G1 X-2.975 Y-2.508 F3600.000
G1 F900
G1 X-3.078 Y-2.088 E2.16318
G1 X-3.533 Y-2.235 E2.18321
G1 X-4.031 Y-2.235 E2.20404
G1 X-4.468 Y-2.136 E2.22280
G1 X-5.108 Y-1.927 E2.25101
G1 X-5.745 Y-1.625 E2.28048
G1 X-6.217 Y-1.322 E2.30399
G1 X-6.617 Y-1.856 E2.33193
G1 X-6.755 Y-2.257 E2.34967
G1 X-6.761 Y-2.348 E2.35350
G1 X-6.616 Y-2.398 E2.35995
G1 X-6.418 Y-2.144 E2.37344
G1 X-6.135 Y-1.909 E2.38885
G1 X-5.887 Y-1.909 E2.39922
G1 X-5.003 Y-2.434 E2.44223
G1 X-4.303 Y-2.796 E2.47524
G1 X-3.504 Y-3.101 E2.51103
G1 X-2.892 Y-3.283 E2.53776
G1 X-2.059 Y-3.446 E2.57330
G1 X-0.869 Y-3.470 E2.62313
G1 X-0.238 Y-3.346 E2.65005
G1 X0.085 Y-3.261 E2.66401
G1 X0.592 Y-3.094 E2.68638
G1 X1.034 Y-2.909 E2.70643
G1 X1.516 Y-2.628 E2.72977
G1 X1.435 Y-2.461 E2.73755
G1 X1.153 Y-2.570 E2.75022
G1 X0.296 Y-2.815 E2.78752
G1 X-0.237 Y-2.904 E2.81018
G1 X-1.104 Y-2.954 E2.84651
G1 X-1.265 Y-2.334 E2.87333
G1 X-1.496 Y-2.424 E2.88371
G1 X-1.989 Y-2.508 E2.90463
G1 X-2.915 Y-2.508 E2.94339
G1 X-3.368 Y-2.579 F3600.000
G1 X-1.257 Y-2.366 F3600.000
G1 F900
G1 X-0.841 Y-2.184 E2.96494
G1 X-0.263 Y-1.865 E2.99625
G1 F900
G1 X0.170 Y-1.576 E3.01667
G1 X0.820 Y-1.057 E3.04935
G1 X0.975 Y-0.909 E3.05774
G1 F900
G1 X1.266 Y-0.624 E3.06905
G1 F900
G1 X1.508 Y-0.373 E3.07620
G1 F900
G1 X1.729 Y-0.142 E3.07993
G1 X2.926 Y-1.652 F3600.000
G1 F900
G1 X2.692 Y-1.818 E3.08392
G1 F900
G1 X2.457 Y-1.984 E3.09093
G1 F900
G1 X2.159 Y-2.176 E3.10332
G1 F900
G1 X1.477 Y-2.547 E3.13928
G1 E1.13928 F18000.00000
G92 E0
G1 Z2.300 F3600.000
G1 X-2.456 Y-1.438 F3600.000
G1 Z0.300 F3600.000
G1 E2.00000 F18000.00000
G1 F900
G1 X-2.336 Y-1.528 E2.00627
G1 X-2.230 Y-1.450 E2.01178
G1 X-1.957 Y-1.186 E2.02769
G1 X-1.747 Y-0.875 E2.04337
G1 X-1.667 Y-0.583 E2.05605
G1 X-1.753 Y-0.202 E2.07242
G1 X-1.921 Y0.071 E2.08584
G1 X-2.418 Y0.568 E2.11524
G1 X-3.307 Y1.161 E2.16000
G1 X-3.857 Y1.436 E2.18573
G1 X-4.808 Y1.814 E2.22858
G1 X-5.632 Y2.042 E2.26437
G1 X-5.691 Y1.872 E2.27192
G1 X-5.060 Y1.575 E2.30112
G1 X-4.306 Y1.109 E2.33820
G1 X-3.521 Y0.786 E2.37373
G1 X-3.069 Y0.467 E2.39691
G1 X-2.701 Y0.036 E2.42063
G1 X-2.478 Y-0.375 E2.44020
G1 X-2.395 Y-0.904 E2.46259
G1 X-2.395 Y-1.273 E2.47803
G1 X-2.435 Y-1.381 E2.48289
G1 X-2.306 Y-1.429 F3600.000
G1 X-2.326 Y-1.536 F3600.000
G1 F900
G1 X-3.086 Y-2.055 E2.51716
G1 E0.51716 F18000.00000
G92 E0
G1 Z2.300 F3600.000
G1 X-6.530 Y-2.629 F3600.000
G1 Z0.300 F3600.000
G1 E2.00000 F18000.00000
G1 F900
G1 X-6.720 Y-2.702 E2.00449
G1 F900
G1 X-6.805 Y-2.738 E2.00750
G1 X-6.858 Y-2.944 E2.01446
G1 F900
G1 X-6.885 Y-3.047 E2.01697
G1 X-6.892 Y-3.199 E2.02056
G1 F900
G1 X-6.876 Y-3.540 E2.03103
G1 X-6.730 Y-4.185 E2.05137
G1 X-7.225 Y-4.880 F3600.000
G1 F900
G1 X-7.672 Y-4.165 E2.08316
G1 F900
G1 X-8.000 Y-3.669 E2.09987
G1 X-8.585 Y-2.711 E2.13144
G1 X-8.897 Y-2.288 E2.14624
G1 X-8.974 Y-2.155 E2.15055
G1 F900
G1 X-9.109 Y-1.941 E2.15997
G1 F900
G1 X-9.177 Y-1.834 E2.16598
G1 X-9.249 Y-1.657 E2.17503
G1 F900
G1 X-9.264 Y-1.594 E2.17862
G1 X-9.264 Y-1.237 E2.19832
G1 X-9.212 Y-1.079 E2.20753
G1 X-9.134 Y-0.932 E2.21673
G1 X-9.027 Y-0.799 E2.22617
G1 X-8.712 Y-0.611 E2.24644
G1 F900
G1 X-8.481 Y-0.363 E2.26731
G1 F900
G1 X-8.329 Y-0.114 E2.28336
G1 F900
G1 X-8.218 Y0.138 E2.29618
G1 X-8.153 Y0.388 E2.30828
G1 F900
G1 X-8.122 Y0.751 E2.32170
G1 F900
G1 X-8.069 Y1.023 E2.32979
G1 F900
G1 X-7.994 Y1.341 E2.34162
G1 F900
G1 X-7.872 Y1.579 E2.35350
G1 F900
G1 X-7.772 Y1.743 E2.36341
G1 X-7.557 Y1.946 E2.37858
G1 X-7.327 Y2.049 E2.39153
G1 X-7.127 Y2.112 E2.40229
G1 X-6.946 Y2.142 E2.41174
G1 X-6.364 Y2.126 E2.44168
G1 F900
G1 X-5.658 Y1.969 E2.48382
G1 E0.48382 F18000.00000
G92 E0
G1 Z2.300 F3600.000
G1 X-4.412 Y8.357 F3600.000
G1 Z0.300 F3600.000
G1 E2.00000 F18000.00000
G1 F900
G1 X-4.104 Y8.400 E2.00505
G1 F900
G1 X-3.704 Y8.446 E2.01621
G1 F900
G1 X-3.304 Y8.492 E2.03197
G1 F900
G1 X-2.074 Y8.565 E2.09335
G1 E0.09335 F18000.00000
G92 E0
G1 Z2.300 F3600.000
G1 X-7.225 Y-4.880 F3600.000
G1 Z0.300 F3600.000
G1 E2.00000 F18000.00000
G1 F900
G1 X-6.884 Y-5.413 E2.02960
G1 F900
G1 X-6.037 Y-6.565 E2.10819
G1 X-5.557 Y-7.019 E2.14455
G1 X-4.151 Y-7.089 F3600.000
G1 F900
G1 X-4.568 Y-7.117 E2.16204
G1 X-5.157 Y-7.074 E2.18678
G1 X-5.506 Y-6.925 E2.20263
G1 X-5.593 Y-7.086 E2.21030
G1 X-5.345 Y-7.253 E2.22283
G1 X-5.162 Y-7.336 E2.23121
G1 X-4.594 Y-7.335 E2.25498
G1 X-4.594 Y-7.821 E2.27532
G1 X-4.427 Y-7.850 E2.28244
G1 X-4.173 Y-7.145 E2.31378
G1 X-4.511 Y-7.264 F3600.000
G1 X-4.283 Y-8.045 F3600.000
G1 F900
G1 X-4.364 Y-8.103 E2.31662
G1 F900
G1 X-4.525 Y-8.220 E2.32404
G1 F900
G1 X-4.562 Y-8.251 E2.32626
G1 X-4.538 Y-8.946 E2.35850
G1 X-3.374 Y-8.942 F3600.000
G1 F900
G1 X-3.103 Y-8.805 E2.35897
G1 F900
G1 X-2.693 Y-8.559 E2.36295
G1 F900
G1 X-2.163 Y-8.111 E2.37581
G1 X-1.892 Y-7.987 E2.38132
G1 X-1.009 Y-7.803 F3600.000
G1 F900
G1 X0.087 Y-7.679 E2.41167
G1 X1.523 Y-8.288 F3600.000
G1 F900
G1 X2.023 Y-7.660 E2.43001
G1 X2.759 Y-6.546 F3600.000
G1 F900
G1 X2.873 Y-6.484 E2.43077
G1 X2.905 Y-6.494 E2.43096
G1 F900
G1 X2.968 Y-6.513 E2.43215
G1 F900
G1 X3.031 Y-6.531 E2.43416
G1 F900
G1 X3.080 Y-6.552 E2.43634
G1 F900
G1 X3.097 Y-6.563 E2.43733
G1 X3.354 Y-6.406 E2.45190
G1 X3.611 Y-6.221 E2.46715
G1 E0.46715 F18000.00000
G92 E0
G1 Z2.300 F3600.000
G1 X5.668 Y-4.034 F3600.000
G1 Z0.300 F3600.000
G1 E2.00000 F18000.00000
G1 F900
G1 X5.777 Y-3.883 E2.00023
G1 F900
G1 X5.808 Y-3.860 E2.00064
G1 X6.135 Y-3.096 E2.00948
G1 F900
G1 X6.311 Y-2.587 E2.01124
G1 F900
G1 X6.484 Y-2.083 E2.01759
G1 E0.01759 F18000.00000
G92 E0
G1 Z2.300 F3600.000
G1 X6.691 Y0.378 F3600.000
G1 Z0.300 F3600.000
G1 E2.00000 F18000.00000
G1 F900
G1 X6.589 Y1.272 E2.02763
G1 F900
G1 X6.451 Y2.054 E2.04519
G1 E0.04519 F18000.00000
G92 E0
G1 Z2.300 F3600.000
G1 X2.341 Y7.546 F3600.000
G1 Z0.300 F3600.000
G1 E2.00000 F18000.00000
G1 F900
G1 X1.705 Y7.808 E2.01788
G1 F900
G1 X1.374 Y7.944 E2.02299
G1 X0.586 Y8.173 E2.03468
G1 E0.03468 F18000.00000
G92 E0
G1 Z2.300 F3600.000
G1 X-2.912 Y0.628 F3600.000
G1 Z0.300 F3600.000
G1 E2.00000 F18000.00000
G1 F900
G1 X-3.415 Y0.975 E2.00370
G1 X-4.199 Y1.319 E2.00887
G1 X-4.661 Y1.551 E2.01200
G1 X-2.912 Y0.628 F3600.000
G1 F900
G1 X-2.702 Y0.442 E2.01639
G1 F900
G1 X-2.453 Y0.190 E2.02452
G1 F900
G1 X-2.284 Y-0.036 E2.03382
G1 F900
G1 X-2.152 Y-0.231 E2.04339
G1 X-1.895 Y-0.780 E2.06798
G1 X-1.991 Y-0.936 F3600.000
G1 F900
G1 X-2.191 Y0.104 E2.11599
G1 X-1.932 Y-0.231 F3600.000
G1 F900
G1 X-2.179 Y-1.167 E2.13903
G1 E0.13903 F18000.00000
G92 E0
G1 Z2.300 F3600.000
G1 X-3.700 Y-2.617 F3600.000
G1 Z0.300 F3600.000
G1 E2.00000 F18000.00000
G1 F900
G1 X-4.050 Y-2.553 E2.01317
G1 F900
G1 X-4.355 Y-2.451 E2.02259
G1 F900
G1 X-4.717 Y-2.309 E2.03055
G1 F900
G1 X-5.036 Y-2.171 E2.03419
G1 F900
G1 X-5.206 Y-2.092 E2.03463
G1 X-6.070 Y-1.615 F3600.000
G1 F900
G1 X-6.228 Y-1.702 E2.03690
G1 F900
G1 X-6.403 Y-1.886 E2.03811
G1 E0.03811 F18000.00000
G92 E0
G1 Z2.300 F3600.000
G1 X-1.210 Y-3.212 F3600.000
G1 Z0.300 F3600.000
G1 E2.00000 F18000.00000
G1 F900
G1 X-0.892 Y-3.206 E2.00340
G1 X-0.288 Y-3.130 E2.00992
G1 F900
G1 X0.198 Y-3.024 E2.01034
M106 S255
G1 Z0.400 F3600.000
G1 E0.01034 F18000.00000
G92 E0
G1 Z2.400 F3600.000
G1 X-0.441 Y8.963 F3600.000
G1 Z0.400 F3600.000
G1 E2.00000 F18000.00000
G1 F900
G1 X-0.724 Y9.558 E2.01038
G1 X-0.956 Y9.098 E2.01849
G1 X-0.499 Y8.978 E2.02593
G1 X-0.447 Y9.856 F3600.000
G1 F900
G1 X-0.998 Y9.856 E2.03460
G1 X-1.505 Y8.851 E2.05232
G1 X0.250 Y8.389 E2.08088
G1 X-0.421 Y9.802 E2.10550
G1 E0.10550 F18000.00000
G92 E0
G1 Z2.400 F3600.000
G1 X3.317 Y7.458 F3600.000
G1 Z0.400 F3600.000
G1 E2.00000 F18000.00000
G1 F900
G1 X4.146 Y6.717 E2.01749
G1 X4.359 Y8.105 E2.03959
G1 X3.368 Y7.489 E2.05796
G1 X2.620 Y7.471 F3600.000
G1 F900
G1 X2.887 Y7.334 E2.06267
G1 X4.414 Y5.970 E2.09490
G1 X4.746 Y8.132 E2.12934
G1 X4.223 Y8.466 E2.13910
G1 X2.671 Y7.502 E2.16785
G1 X6.512 Y3.716 F3600.000
G1 F900
G1 X6.672 Y3.298 E2.17488
G1 X7.023 Y3.716 E2.18347
G1 X6.572 Y3.716 E2.19057
G1 X5.962 Y4.094 F3600.000
G1 F900
G1 X6.414 Y2.913 E2.21047
G1 X6.493 Y2.498 E2.21713
G1 X7.714 Y3.950 E2.24699
G1 X7.655 Y4.095 E2.24946
G1 X6.022 Y4.094 E2.27516
G1 X7.225 Y-0.722 F3600.000
G1 F900
G1 X7.168 Y-1.211 E2.28292
G1 X7.719 Y-1.042 E2.29199
G1 X7.275 Y-0.754 E2.30031
G1 X6.803 Y0.003 F3600.000
G1 F900
G1 X6.848 Y-0.688 E2.31120
G1 X6.726 Y-1.744 E2.32793
G1 X8.605 Y-1.166 E2.35888
G1 X6.854 Y-0.030 E2.39173
G1 X5.714 Y-4.431 F3600.000
G1 F900
G1 X4.975 Y-5.410 E2.41104
G1 X4.841 Y-5.546 E2.41404
G1 X6.375 Y-5.986 E2.43915
G1 X5.737 Y-4.486 E2.46480
G1 X6.764 Y-5.932 F3600.000
G1 F900
G1 X5.956 Y-4.033 E2.49728
G1 X6.680 Y-2.153 E2.52898
G1 X8.781 Y-1.508 E2.56356
G1 X8.879 Y-0.892 E2.57338
G1 X6.993 Y0.331 E2.60875
G1 X6.694 Y2.149 E2.63775
G1 X8.152 Y3.881 E2.67338
G1 X7.908 Y4.473 E2.68345
G1 X5.412 Y4.473 E2.72274
G1 X6.048 Y2.809 E2.75076
G1 X6.344 Y1.248 E2.77577
G1 X6.468 Y-0.678 E2.80614
G1 X6.329 Y-1.877 E2.82514
G1 X5.977 Y-3.032 E2.84415
G1 X5.453 Y-4.148 E2.86355
G1 X4.688 Y-5.162 E2.88354
G1 X4.153 Y-5.705 E2.89553
G1 X4.277 Y-5.862 E2.89868
G1 X4.372 Y-5.805 E2.90042
G1 X6.363 Y-6.376 E2.93302
G1 X6.724 Y-5.976 E2.94149
G1 E0.94149 F18000.00000
G92 E0
G1 Z2.400 F3600.000
G1 X2.130 Y-7.509 F3600.000
G1 Z0.400 F3600.000
G1 E2.00000 F18000.00000
G1 F900
G1 X1.794 Y-7.664 E2.00582
G1 X1.084 Y-7.916 E2.01768
G1 X1.915 Y-8.855 E2.03742
G1 X2.121 Y-7.569 E2.05792
G1 X2.616 Y-6.869 F3600.000
G1 F900
G1 X1.651 Y-7.313 E2.07463
