; generated by Slic3r 1.3.1-dev on 2018-09-08 at 00:05:13

; external perimeters extrusion width = 0.40mm (0.54mm^3/s)
; perimeters extrusion width = 0.40mm (1.07mm^3/s)
; infill extrusion width = 0.40mm (2.14mm^3/s)
; solid infill extrusion width = 0.40mm (1.71mm^3/s)
; top infill extrusion width = 0.40mm (0.86mm^3/s)

M104 S210 ; set temperature
G90
G1 F300 Z1
G1 F1200 X77 Y15
G1 F300 Z0.315
G92 E0
G1 F2520 X77 Y-35 E4
G1 F2520 X77.5 Y-35 E4.05
G1 F2520 X77.5 Y30 E7.4
G1 F5000 X77.25 Y30
G92 E0
G1 F2520 X77.25 Y-35 E4
G1 F2520 X77.75 Y-35 E4.05
G1 F2520 X77.75 Y30 E7.4
G1 F5000 X77 Y0
G1 F300 Z1
G1 X0 Y0 F5000
G92 E0
; Filament gcode

M109 S210 ; set temperature and wait for it to be reached
G21 ; set units to millimeters
G90 ; use absolute coordinates
M82 ; use absolute distances for extrusion
G92 E0
G92 E0
G1 Z0.300 F3600.000
G1 E-2.00000 F18000.00000
G92 E0
G1 Z2.300 F3600.000
G1 X1.469 Y23.973 F3600.000
G1 Z0.300 F3600.000
G1 E2.00000 F18000.00000
G1 F900
G1 X-1.092 Y29.362 E2.24977
G1 X-3.236 Y29.362 E2.33952
G1 X-5.107 Y25.654 E2.51336
G1 X-4.923 Y25.654 E2.52107
G1 X1.411 Y23.988 E2.79520
G1 E0.79520 F18000.00000
G92 E0
G1 Z2.300 F3600.000
G1 X-4.400 Y-18.587 F3600.000
G1 Z0.300 F3600.000
G1 E2.00000 F18000.00000
G1 F900
G1 X-4.400 Y-20.883 E2.09612
G1 X-4.906 Y-22.263 E2.15768
G1 X-5.585 Y-23.482 E2.21606
G1 X-6.425 Y-24.685 E2.27749
G1 X-7.331 Y-25.553 E2.33002
G1 X-7.202 Y-25.698 E2.33814
G1 X-6.392 Y-25.030 E2.38212
G1 X-5.737 Y-24.263 E2.42433
G1 X-3.265 Y-24.117 E2.52796
G1 X-3.266 Y-21.515 E2.63686
G1 X-2.941 Y-20.467 E2.68283
G1 X-2.941 Y-19.983 E2.70308
G1 X-3.191 Y-19.605 E2.72204
G1 X-3.665 Y-19.106 E2.75086
G1 X-4.351 Y-18.621 E2.78604
G1 E0.78604 F18000.00000
G92 E0
G1 Z2.300 F3600.000
G1 X-2.493 Y-23.855 F3600.000
G1 Z0.300 F3600.000
G1 E2.00000 F18000.00000
G1 F900
G1 X-2.470 Y-24.048 E2.00813
G1 X-0.200 Y-23.857 E2.10351
G1 X0.775 Y-23.857 E2.14430
G1 X4.917 Y-28.536 E2.40591
G1 X7.179 Y-27.876 E2.50455
G1 X8.213 Y-21.414 E2.77849
G1 X13.171 Y-18.441 E3.02052
G1 X19.218 Y-20.174 E3.28383
G1 X20.751 Y-18.472 E3.37970
G1 X18.292 Y-12.692 E3.64266
G1 X20.340 Y-7.380 E3.88097
G1 X26.691 Y-5.427 E4.15913
G1 X27.064 Y-3.084 E4.25843
G1 X21.337 Y0.629 E4.54414
G1 X20.499 Y5.733 E4.76065
G1 X24.909 Y10.974 E5.04737
G1 X23.989 Y13.213 E5.14873
G1 X17.047 Y13.211 E5.43933
G1 X13.642 Y17.329 E5.66301
G1 X14.667 Y23.991 E5.94514
G1 X12.672 Y25.262 E6.04416
G1 X7.559 Y22.087 E6.29611
G1 X5.714 Y22.677 E6.37719
G1 X5.643 Y22.506 E6.38496
G1 X8.436 Y21.076 E6.51629
G1 X13.100 Y16.909 E6.77810
G1 X15.940 Y12.491 E6.99795
G1 X17.765 Y7.720 E7.21177
G1 X18.642 Y3.096 E7.40880
G1 X19.008 Y-2.623 E7.64870
G1 X18.601 Y-6.151 E7.79734
G1 X17.562 Y-9.555 E7.94631
G1 X16.019 Y-12.840 E8.09825
G1 X13.766 Y-15.829 E8.25496
G1 X12.166 Y-17.453 E8.35035
G1 X9.857 Y-19.452 E8.47822
G1 X7.464 Y-20.951 E8.59641
G1 X4.806 Y-22.175 E8.71892
G1 X2.101 Y-23.133 E8.83902
G1 X-2.434 Y-23.846 E9.03121
G1 X-2.930 Y-23.584 F3600.000
G1 F900
G1 X-2.931 Y-21.566 E9.11567
G1 X-2.605 Y-20.517 E9.16164
G1 X-2.605 Y-19.881 E9.18826
G1 X-2.927 Y-19.395 E9.21267
G1 X-3.444 Y-18.851 E9.24410
G1 X-4.293 Y-18.251 E9.28761
G1 X-4.964 Y-17.951 E9.31836
G1 X-4.736 Y-18.691 E9.35075
G1 X-4.735 Y-20.823 E9.44001
G1 X-5.212 Y-22.123 E9.49796
G1 X-5.870 Y-23.304 E9.55453
G1 X-6.681 Y-24.466 E9.61386
G1 X-8.310 Y-26.025 E9.70828
G1 X-9.734 Y-27.001 E9.78050
G1 X-10.811 Y-27.654 E9.83324
G1 X-10.743 Y-27.814 E9.84053
G1 X-10.548 Y-27.763 E9.84896
G1 X-8.876 Y-27.121 E9.92394
G1 X-7.371 Y-26.272 E9.99627
G1 X-6.156 Y-25.270 E10.06222
G1 X-5.574 Y-24.590 E10.09967
G1 X-3.323 Y-24.456 E10.19410
G1 X-0.185 Y-24.192 E10.32588
G1 X0.624 Y-24.192 E10.35976
G1 X4.807 Y-28.918 E10.62395
G1 X7.477 Y-28.139 E10.74038
G1 X8.519 Y-21.622 E11.01666
G1 X13.219 Y-18.804 E11.24605
G1 X19.327 Y-20.554 E11.51203
G1 X21.144 Y-18.538 E11.62564
G1 X18.654 Y-12.686 E11.89186
G1 X20.594 Y-7.653 E12.11765
G1 X26.990 Y-5.686 E12.39775
G1 X27.430 Y-2.921 E12.51494
G1 X21.644 Y0.830 E12.80358
G1 X20.855 Y5.635 E13.00741
G1 X25.297 Y10.913 E13.29618
G1 X24.214 Y13.549 E13.41547
G1 X17.205 Y13.547 E13.70887
G1 X13.997 Y17.427 E13.91963
G1 X15.032 Y24.156 E14.20462
G1 X12.674 Y25.659 E14.32165
G1 X7.513 Y22.454 E14.57595
G1 X1.675 Y24.320 E14.83252
G1 X-0.880 Y29.698 E15.08175
G1 X-3.443 Y29.697 E15.18902
G1 X-5.652 Y25.318 E15.39434
G1 X-4.966 Y25.318 E15.42306
G1 X4.038 Y22.950 E15.81278
G1 X8.245 Y20.797 E16.01061
G1 X12.842 Y16.689 E16.26870
G1 X15.639 Y12.339 E16.48519
G1 X17.440 Y7.628 E16.69630
G1 X18.309 Y3.054 E16.89121
G1 X18.671 Y-2.615 E17.12898
G1 X18.271 Y-6.082 E17.27508
G1 X17.248 Y-9.434 E17.42177
G1 X15.730 Y-12.666 E17.57125
G1 X13.511 Y-15.610 E17.72557
G1 X11.937 Y-17.208 E17.81948
G1 X9.657 Y-19.181 E17.94571
G1 X7.304 Y-20.655 E18.06191
G1 X4.679 Y-21.864 E18.18288
G1 X2.019 Y-22.806 E18.30104
G1 X-2.871 Y-23.575 E18.50822
G1 X-2.594 Y-23.191 F3600.000
G1 F900
G1 X-2.595 Y-21.617 E18.57413
G1 X-2.269 Y-20.568 E18.62009
G1 X-2.269 Y-19.780 E18.65308
G1 X-2.664 Y-19.186 E18.68295
G1 X-3.224 Y-18.596 E18.71699
G1 X-4.127 Y-17.958 E18.76326
G1 X-5.101 Y-17.522 E18.80792
G1 X-5.488 Y-17.391 E18.82504
G1 X-5.072 Y-18.742 E18.88421
G1 X-5.071 Y-20.764 E18.96886
G1 X-5.518 Y-21.983 E19.02320
G1 X-6.155 Y-23.125 E19.07797
G1 X-6.937 Y-24.247 E19.13519
G1 X-8.523 Y-25.764 E19.22706
G1 X-9.916 Y-26.718 E19.29774
G1 X-12.231 Y-28.122 E19.41107
G1 X-13.421 Y-27.600 E19.46548
G1 X-13.219 Y-28.811 E19.51687
G1 X-10.445 Y-28.083 E19.63693
G1 X-8.733 Y-27.425 E19.71372
G1 X-7.180 Y-26.550 E19.78831
G1 X-5.920 Y-25.510 E19.85673
G1 X-5.412 Y-24.916 E19.88943
G1 X-3.299 Y-24.791 E19.97806
G1 X-0.171 Y-24.528 E20.10943
G1 X0.473 Y-24.528 E20.13638
G1 X4.697 Y-29.300 E20.40315
G1 X7.775 Y-28.402 E20.53738
G1 X8.826 Y-21.829 E20.81601
G1 X13.267 Y-19.166 E21.03275
G1 X19.436 Y-20.934 E21.30141
G1 X21.537 Y-18.603 E21.43275
G1 X19.016 Y-12.679 E21.70224
G1 X20.849 Y-7.926 E21.91551
G1 X27.288 Y-5.946 E22.19753
G1 X27.796 Y-2.759 E22.33262
G1 X21.952 Y1.031 E22.62419
G1 X21.212 Y5.537 E22.81535
G1 X25.685 Y10.853 E23.10616
G1 X24.439 Y13.885 E23.24338
G1 X17.363 Y13.882 E23.53958
G1 X14.351 Y17.525 E23.73742
G1 X15.397 Y24.322 E24.02528
G1 X12.677 Y26.056 E24.16031
G1 X7.468 Y22.821 E24.41696
G1 X1.916 Y24.596 E24.66095
G1 X-0.668 Y30.034 E24.91298
G1 X-3.649 Y30.033 E25.03778
G1 X-6.076 Y25.224 E25.26324
G1 X-6.518 Y25.172 E25.28188
G1 X-6.507 Y24.982 E25.28983
G1 X-5.009 Y24.983 E25.35251
G1 X3.917 Y22.635 E25.73888
G1 X8.053 Y20.518 E25.93338
G1 X12.584 Y16.469 E26.18775
G1 X15.338 Y12.186 E26.40088
G1 X17.116 Y7.536 E26.60929
G1 X17.975 Y3.012 E26.80207
G1 X18.335 Y-2.606 E27.03771
G1 X17.941 Y-6.013 E27.18128
G1 X16.934 Y-9.313 E27.32569
G1 X15.441 Y-12.492 E27.47270
G1 X13.257 Y-15.390 E27.62463
G1 X11.707 Y-16.963 E27.71706
G1 X9.457 Y-18.911 E27.84165
G1 X7.144 Y-20.359 E27.95586
G1 X4.553 Y-21.552 E28.07529
G1 X1.936 Y-22.479 E28.19151
G1 X-2.535 Y-23.182 E28.38097
G1 E26.38097 F18000.00000
G92 E0
G1 Z2.300 F3600.000
G1 X-13.071 Y-22.317 F3600.000
G1 Z0.300 F3600.000
G1 E2.00000 F18000.00000
G1 F900
G1 X-13.376 Y-22.337 E2.01280
G1 X-13.376 Y-22.682 E2.02726
G1 X-13.209 Y-22.710 E2.03438
G1 X-13.091 Y-22.373 E2.04932
G1 X-13.712 Y-22.535 F3600.000
G1 F900
G1 X-13.711 Y-24.661 E2.13832
G1 X-13.544 Y-24.689 E2.14544
G1 X-12.787 Y-22.521 E2.24158
G1 X-12.563 Y-21.947 E2.26735
G1 X-13.704 Y-22.022 E2.31521
G1 X-15.489 Y-21.891 E2.39014
G1 X-16.872 Y-21.302 E2.45306
G1 X-17.460 Y-20.811 E2.48512
G1 X-17.590 Y-20.954 E2.49321
G1 X-16.711 Y-21.819 E2.54482
G1 X-16.000 Y-22.297 E2.58070
G1 X-15.472 Y-22.535 E2.60493
G1 X-13.772 Y-22.535 E2.67609
G1 E0.67609 F18000.00000
G92 E0
G1 Z2.300 F3600.000
G1 X-18.769 Y-19.249 F3600.000
G1 Z0.300 F3600.000
G1 E2.00000 F18000.00000
G1 F900
G1 X-19.104 Y-18.782 E2.02404
G1 X-19.259 Y-18.899 E2.03221
G1 X-18.924 Y-19.364 E2.05621
G1 X-18.817 Y-19.284 E2.06179
G1 E0.06179 F18000.00000
G92 E0
G1 Z2.300 F3600.000
G1 X-14.048 Y-22.870 F3600.000
G1 Z0.300 F3600.000
G1 E2.00000 F18000.00000
G1 F900
G1 X-14.047 Y-24.736 E2.07809
G1 X-13.910 Y-26.706 E2.16076
G1 X-13.490 Y-29.229 E2.26782
G1 X-10.342 Y-28.403 E2.40405
G1 X-8.589 Y-27.730 E2.48265
G1 X-6.990 Y-26.828 E2.55952
G1 X-5.684 Y-25.750 E2.63040
G1 X-5.250 Y-25.243 E2.65835
G1 X-3.275 Y-25.126 E2.74117
G1 X-0.157 Y-24.864 E2.87213
G1 X0.322 Y-24.864 E2.89217
G1 X4.586 Y-29.682 E3.16152
G1 X8.073 Y-28.664 E3.31355
G1 X9.133 Y-22.036 E3.59452
G1 X13.314 Y-19.529 E3.79861
G1 X19.545 Y-21.315 E4.06994
G1 X21.929 Y-18.669 E4.21902
G1 X19.378 Y-12.673 E4.49178
G1 X21.103 Y-8.198 E4.69253
G1 X27.587 Y-6.205 E4.97648
G1 X28.161 Y-2.596 E5.12946
G1 X22.259 Y1.232 E5.42395
G1 X21.568 Y5.439 E5.60244
G1 X26.072 Y10.792 E5.89530
G1 X24.664 Y14.220 E6.05045
G1 X17.521 Y14.218 E6.34946
G1 X14.706 Y17.623 E6.53437
G1 X15.762 Y24.487 E6.82509
G1 X12.679 Y26.452 E6.97812
G1 X7.422 Y23.188 E7.23713
G1 X2.157 Y24.871 E7.46855
G1 X-0.456 Y30.369 E7.72336
G1 X-3.856 Y30.368 E7.86569
G1 X-6.294 Y25.536 E8.09225
G1 X-9.951 Y25.106 E8.24640
G1 X-11.164 Y24.824 E8.29853
G1 X-11.144 Y24.645 E8.30604
G1 X-5.053 Y24.647 E8.56101
G1 X3.797 Y22.320 E8.94405
G1 X7.862 Y20.239 E9.13521
G1 X12.327 Y16.249 E9.38587
G1 X15.037 Y12.034 E9.59563
G1 X16.792 Y7.444 E9.80134
G1 X17.642 Y2.969 E9.99200
G1 X17.998 Y-2.598 E10.22551
G1 X17.611 Y-5.944 E10.36654
G1 X16.620 Y-9.192 E10.50867
G1 X15.152 Y-12.317 E10.65322
G1 X13.002 Y-15.170 E10.80276
G1 X11.477 Y-16.717 E10.89370
G1 X9.257 Y-18.640 E11.01665
G1 X6.984 Y-20.063 E11.12888
G1 X4.426 Y-21.241 E11.24677
G1 X1.853 Y-22.153 E11.36105
G1 X-2.259 Y-22.799 E11.53529
G1 X-2.259 Y-21.668 E11.58264
G1 X-1.934 Y-20.619 E11.62861
G1 X-1.934 Y-19.679 E11.66796
G1 X-2.400 Y-18.976 E11.70328
G1 X-3.003 Y-18.341 E11.73994
G1 X-3.960 Y-17.665 E11.78896
G1 X-4.978 Y-17.210 E11.83564
G1 X-6.064 Y-16.840 E11.88370
G1 X-5.875 Y-17.274 E11.90353
G1 X-5.407 Y-18.792 E11.97003
G1 X-5.407 Y-20.704 E12.05006
G1 X-5.824 Y-21.842 E12.10081
G1 X-6.440 Y-22.947 E12.15377
G1 X-7.193 Y-24.027 E12.20888
G1 X-8.735 Y-25.503 E12.29821
G1 X-10.098 Y-26.436 E12.36735
G1 X-12.256 Y-27.744 E12.47299
G1 X-13.367 Y-27.257 E12.52377
G1 X-13.367 Y-25.202 E12.60980
G1 X-12.472 Y-22.637 E12.72354
G1 X-12.059 Y-21.578 E12.77114
G1 X-13.703 Y-21.685 E12.84010
G1 X-15.409 Y-21.560 E12.91173
G1 X-16.695 Y-21.013 E12.97024
G1 X-17.769 Y-20.116 E13.02881
G1 X-18.731 Y-18.710 E13.10011
G1 X-20.775 Y-16.170 E13.23662
G1 X-22.970 Y-12.988 E13.39843
G1 X-23.133 Y-13.089 E13.40648
G1 X-20.636 Y-17.527 E13.61962
G1 X-19.255 Y-19.488 E13.72004
G1 X-18.071 Y-20.952 E13.79885
G1 X-16.924 Y-22.080 E13.86619
G1 X-16.163 Y-22.592 E13.90456
G1 X-15.544 Y-22.871 E13.93301
G1 X-14.108 Y-22.870 E13.99313
G1 E11.99313 F18000.00000
G92 E0
G1 Z2.300 F3600.000
G1 X-19.556 Y-6.561 F3600.000
G1 Z0.300 F3600.000
G1 E2.00000 F18000.00000
G1 F900
G1 X-19.430 Y-6.648 E2.00639
G1 X-18.550 Y-5.921 E2.05418
G1 X-17.560 Y-5.920 E2.09562
G1 X-17.518 Y-5.776 E2.10193
G1 X-18.552 Y-5.112 E2.15337
G1 X-19.487 Y-6.361 E2.21867
G1 X-19.536 Y-6.505 E2.22503
G1 E0.22503 F18000.00000
G92 E0
G1 Z2.300 F3600.000
G1 X-9.986 Y-8.867 F3600.000
G1 Z0.300 F3600.000
G1 E2.00000 F18000.00000
G1 F900
G1 X-9.986 Y-7.888 E2.04099
G1 X-10.483 Y-8.048 E2.06282
G1 X-12.176 Y-8.049 E2.13369
G1 X-13.152 Y-7.827 E2.17561
G1 X-13.213 Y-7.993 E2.18304
G1 X-12.604 Y-8.308 E2.21173
G1 X-10.274 Y-9.200 E2.31619
G1 X-8.499 Y-9.728 E2.39371
G1 X-6.097 Y-10.197 E2.49612
G1 X-4.332 Y-10.233 E2.57003
G1 X-4.333 Y-8.599 E2.63843
G1 X-5.904 Y-8.866 E2.70513
G1 X-9.926 Y-8.867 E2.87350
G1 X-9.650 Y-8.532 F3600.000
G1 F900
G1 X-9.651 Y-7.427 E2.91973
G1 X-10.536 Y-7.713 E2.95865
G1 X-12.138 Y-7.713 E3.02573
G1 X-13.512 Y-7.401 E3.08470
G1 X-15.476 Y-6.759 E3.17122
G1 X-16.890 Y-6.088 E3.23670
G1 X-16.980 Y-6.258 E3.24475
G1 X-14.812 Y-7.545 E3.35028
G1 X-12.742 Y-8.615 E3.44784
G1 X-10.382 Y-9.518 E3.55362
G1 X-8.579 Y-10.054 E3.63235
G1 X-6.133 Y-10.532 E3.73666
G1 X-2.642 Y-10.603 E3.88284
G1 X-0.804 Y-10.241 E3.96123
G1 X0.139 Y-9.994 E4.00206
G1 X1.634 Y-9.500 E4.06798
G1 X1.996 Y-9.348 E4.08441
G1 X1.933 Y-9.169 E4.09236
G1 X0.979 Y-9.442 E4.13392
G1 X-0.667 Y-9.718 E4.20376
G1 X-3.997 Y-9.910 E4.34338
G1 X-3.997 Y-8.118 E4.41840
G1 X-4.379 Y-8.267 E4.43557
G1 X-5.932 Y-8.530 E4.50150
G1 X-9.590 Y-8.532 E4.65464
G1 X-9.315 Y-8.196 F3600.000
G1 F900
G1 X-9.315 Y-6.966 E4.70611
G1 X-10.588 Y-7.377 E4.76210
G1 X-12.100 Y-7.378 E4.82540
G1 X-13.422 Y-7.077 E4.88215
G1 X-15.352 Y-6.446 E4.96712
G1 X-17.268 Y-5.537 E5.05591
G1 X-18.634 Y-4.661 E5.12384
G1 X-19.787 Y-6.202 E5.20441
G1 X-20.195 Y-7.385 E5.25680
G1 X-20.234 Y-7.974 E5.28151
G1 X-20.089 Y-8.024 E5.28795
G1 X-19.766 Y-7.550 E5.31196
G1 X-19.306 Y-6.980 E5.34263
G1 X-18.429 Y-6.256 E5.39021
G1 X-17.641 Y-6.256 E5.42323
G1 X-14.975 Y-7.839 E5.55300
G1 X-12.879 Y-8.922 E5.65176
G1 X-10.490 Y-9.836 E5.75885
G1 X-8.659 Y-10.381 E5.83880
G1 X-6.169 Y-10.867 E5.94500
G1 X-2.613 Y-10.940 E6.09391
G1 X-0.729 Y-10.569 E6.17425
G1 X0.234 Y-10.316 E6.21596
G1 X1.752 Y-9.814 E6.28286
G1 X3.070 Y-9.263 E6.34269
G1 X4.683 Y-8.324 E6.42081
G1 X5.391 Y-7.829 E6.45694
G1 X5.307 Y-7.672 E6.46441
G1 X3.482 Y-8.377 E6.54631
G1 X0.905 Y-9.114 E6.65851
G1 X-0.704 Y-9.384 E6.72680
G1 X-3.661 Y-9.554 E6.85078
G1 X-3.662 Y-7.626 E6.93149
G1 X-4.469 Y-7.942 E6.96778
G1 X-5.960 Y-8.195 E7.03109
G1 X-9.255 Y-8.196 E7.16900
G1 X-8.979 Y-7.860 F3600.000
G1 F900
G1 X-8.980 Y-6.506 E7.22571
G1 X-10.641 Y-7.041 E7.29878
G1 X-12.063 Y-7.042 E7.35829
G1 X-13.333 Y-6.753 E7.41281
G1 X-15.227 Y-6.134 E7.49624
G1 X-17.105 Y-5.243 E7.58324
G1 X-18.715 Y-4.210 E7.66334
G1 X-20.087 Y-6.043 E7.75919
G1 X-20.527 Y-7.318 E7.81565
G1 X-20.673 Y-9.479 E7.90632
G1 X-20.511 Y-9.521 E7.91332
G1 X-20.095 Y-8.630 E7.95446
G1 X-19.497 Y-7.751 E7.99900
G1 X-19.066 Y-7.218 E8.02768
G1 X-18.309 Y-6.592 E8.06880
G1 X-17.733 Y-6.592 E8.09290
G1 X-15.138 Y-8.132 E8.21923
G1 X-13.016 Y-9.228 E8.31918
G1 X-10.598 Y-10.154 E8.42760
G1 X-8.739 Y-10.707 E8.50876
G1 X-6.205 Y-11.202 E8.61685
G1 X-2.583 Y-11.276 E8.76849
G1 X-0.654 Y-10.896 E8.85079
G1 X0.330 Y-10.638 E8.89337
G1 X1.869 Y-10.129 E8.96125
G1 X3.220 Y-9.564 E9.02254
G1 X4.864 Y-8.607 E9.10217
G1 X6.321 Y-7.588 E9.17660
G1 X7.563 Y-6.529 E9.24492
G1 X7.466 Y-6.390 E9.25201
G1 X6.398 Y-6.890 E9.30137
G1 X3.375 Y-8.059 E9.43704
G1 X0.831 Y-8.786 E9.54781
G1 X-0.742 Y-9.050 E9.61455
G1 X-3.326 Y-9.199 E9.72289
G1 X-3.326 Y-7.887 E9.77781
G1 X-1.488 Y-6.996 E9.86332
G1 X0.571 Y-5.643 E9.96643
G1 X2.626 Y-3.937 E10.07825
G1 X3.498 Y-2.906 E10.13477
G1 X3.373 Y-2.775 E10.14235
G1 X0.330 Y-5.115 E10.30302
G1 X-0.909 Y-5.934 E10.36522
G1 X-2.687 Y-6.885 E10.44962
G1 X-4.559 Y-7.617 E10.53376
G1 X-5.989 Y-7.859 E10.59445
G1 X-8.919 Y-7.860 E10.71714
G1 E8.71714 F18000.00000
G92 E0
G1 Z2.300 F3600.000
G1 X-19.820 Y-12.462 F3600.000
G1 Z0.300 F3600.000
G1 E2.00000 F18000.00000
G1 F900
G1 X-20.323 Y-12.075 E2.02659
G1 X-20.323 Y-12.491 E2.04402
G1 X-19.880 Y-12.466 E2.06261
G1 X-20.659 Y-12.846 F3600.000
G1 F900
G1 X-18.901 Y-12.746 E2.13630
G1 X-20.063 Y-11.851 E2.19766
G1 X-20.677 Y-11.196 E2.23526
G1 X-20.659 Y-11.591 E2.25183
G1 X-20.659 Y-12.786 E2.30186
G1 E0.30186 F18000.00000
G92 E0
G1 Z2.300 F3600.000
G1 X-6.442 Y-3.420 F3600.000
G1 Z0.300 F3600.000
G1 E2.00000 F18000.00000
G1 F900
G1 X-6.299 Y-3.464 E2.00623
G1 X-5.925 Y-2.911 E2.03419
G1 X-5.765 Y-2.333 E2.05930
G1 X-5.957 Y-1.490 E2.09546
G1 X-6.351 Y-0.850 E2.12695
G1 X-7.736 Y0.538 E2.20902
G1 X-7.833 Y0.606 E2.21398
G1 X-7.952 Y0.475 E2.22140
G1 X-7.487 Y-0.071 E2.25141
G1 X-6.722 Y-1.484 E2.31869
G1 X-6.442 Y-3.253 E2.39365
G1 X-6.442 Y-3.360 E2.39815
G1 X-6.777 Y-4.468 F3600.000
G1 F900
G1 X-6.185 Y-3.894 E2.43267
G1 X-5.616 Y-3.053 E2.47515
G1 X-5.420 Y-2.340 E2.50610
G1 X-5.642 Y-1.362 E2.54812
G1 X-6.086 Y-0.640 E2.58357
G1 X-7.520 Y0.796 E2.66854
G1 X-8.812 Y1.698 E2.73451
G1 X-10.116 Y2.527 E2.79919
G1 X-11.746 Y3.342 E2.87548
G1 X-13.172 Y3.940 E2.94019
G1 X-14.662 Y4.488 E3.00665
G1 X-14.734 Y4.327 E3.01404
G1 X-12.732 Y3.092 E3.11251
