; generated by Slic3r 1.3.1-dev on 2018-09-08 at 23:30:17

; external perimeters extrusion width = 0.40mm (0.54mm^3/s)
; perimeters extrusion width = 0.40mm (1.07mm^3/s)
; infill extrusion width = 0.40mm (2.14mm^3/s)
; solid infill extrusion width = 0.40mm (1.71mm^3/s)
; top infill extrusion width = 0.40mm (0.86mm^3/s)

M104 S210 ; set temperature
G90
G1 F300 Z1
G1 F1200 X77 Y15
G1 F300 Z0.315
G92 E0
G1 F2520 X77 Y-35 E4
G1 F2520 X77.5 Y-35 E4.05
G1 F2520 X77.5 Y30 E7.4
G1 F5000 X77.25 Y30
G92 E0
G1 F2520 X77.25 Y-35 E4
G1 F2520 X77.75 Y-35 E4.05
G1 F2520 X77.75 Y30 E7.4
G1 F5000 X77 Y0
G1 F300 Z1
G1 X0 Y0 F5000
G92 E0
; Filament gcode

M109 S210 ; set temperature and wait for it to be reached
G21 ; set units to millimeters
G90 ; use absolute coordinates
M82 ; use absolute distances for extrusion
G92 E0
G92 E0
G1 Z0.300 F3600.000
G1 E-2.00000 F18000.00000
G92 E0
G1 Z2.300 F3600.000
G1 X0.200 Y9.100 F3600.000
G1 Z0.300 F3600.000
G1 E2.00000 F18000.00000
G1 F900
G1 X0.200 Y9.500 E2.01674
G1 X-0.200 Y9.500 E2.03349
G1 X-0.200 Y9.100 E2.05023
G1 X0.140 Y9.100 E2.06446
G1 X0.096 Y9.486 F3600.000
G1 E0.06446 F18000.00000
G92 E0
G1 Z2.300 F3600.000
G1 X-6.300 Y6.500 F3600.000
G1 Z0.300 F3600.000
G1 E2.00000 F18000.00000
G1 F900
G1 X-6.700 Y6.500 E2.01674
G1 X-6.700 Y6.100 E2.03349
G1 X-6.300 Y6.100 E2.05023
G1 X-6.300 Y6.440 E2.06446
G1 X-6.686 Y6.396 F3600.000
G1 E0.06446 F18000.00000
G92 E0
G1 Z2.300 F3600.000
G1 X-4.307 Y0.493 F3600.000
G1 Z0.300 F3600.000
G1 E2.00000 F18000.00000
G1 F900
G1 X-18.693 Y0.493 E2.60221
G1 X-18.693 Y0.107 E2.61838
G1 X-4.307 Y0.107 E3.22060
G1 X-4.307 Y0.433 E3.23426
G1 X-3.971 Y0.829 F3600.000
G1 F900
G1 X-19.029 Y0.829 E3.86457
G1 X-19.029 Y-0.229 E3.90884
G1 X-3.971 Y-0.229 E4.53915
G1 X-3.971 Y0.769 E4.58091
G1 X-3.636 Y1.164 F3600.000
G1 F900
G1 X-19.364 Y1.164 E5.23932
G1 X-19.364 Y-0.564 E5.31168
G1 X-3.636 Y-0.564 E5.97010
G1 X-3.636 Y1.104 E6.03995
G1 X-3.300 Y1.500 F3600.000
G1 F900
G1 X-19.700 Y1.500 E6.72646
G1 X-19.700 Y-0.900 E6.82692
G1 X-3.300 Y-0.900 E7.51343
G1 X-3.300 Y1.440 E7.61139
G1 X-3.700 Y1.481 F3600.000
G1 E5.61139 F18000.00000
G92 E0
G1 Z2.300 F3600.000
G1 X-6.800 Y-5.000 F3600.000
G1 Z0.300 F3600.000
G1 E2.00000 F18000.00000
G1 F900
G1 X-7.200 Y-5.000 E2.01674
G1 X-7.200 Y-5.400 E2.03349
G1 X-6.800 Y-5.400 E2.05023
G1 X-6.800 Y-5.060 E2.06446
G1 X-7.186 Y-5.104 F3600.000
G1 E0.06446 F18000.00000
G92 E0
G1 Z2.300 F3600.000
G1 X-0.200 Y-8.500 F3600.000
G1 Z0.300 F3600.000
G1 E2.00000 F18000.00000
G1 F900
G1 X-0.200 Y-8.900 E2.01674
G1 X0.200 Y-8.900 E2.03349
G1 X0.200 Y-8.500 E2.05023
G1 X-0.140 Y-8.500 E2.06446
G1 X-0.096 Y-8.886 F3600.000
G1 E0.06446 F18000.00000
G92 E0
G1 Z2.300 F3600.000
G1 X6.800 Y-5.400 F3600.000
G1 Z0.300 F3600.000
G1 E2.00000 F18000.00000
G1 F900
G1 X7.200 Y-5.400 E2.01674
G1 X7.200 Y-5.000 E2.03349
G1 X6.800 Y-5.000 E2.05023
G1 X6.800 Y-5.340 E2.06446
G1 X7.186 Y-5.296 F3600.000
G1 E0.06446 F18000.00000
G92 E0
G1 Z2.300 F3600.000
G1 X1.395 Y0.107 F3600.000
G1 Z0.300 F3600.000
G1 E2.00000 F18000.00000
G1 F900
G1 X18.605 Y0.107 E2.72041
G1 X18.605 Y0.493 E2.73658
G1 X1.395 Y0.493 E3.45699
G1 X1.395 Y0.167 E3.47064
G1 X1.059 Y-0.229 F3600.000
G1 F900
G1 X18.941 Y-0.229 E4.21915
G1 X18.941 Y0.829 E4.26342
G1 X1.059 Y0.829 E5.01193
G1 X1.059 Y-0.169 E5.05368
G1 X0.724 Y-0.564 F3600.000
G1 F900
G1 X19.276 Y-0.564 E5.83029
G1 X19.276 Y1.164 E5.90265
G1 X0.724 Y1.164 E6.67926
G1 X0.724 Y-0.504 E6.74911
G1 X0.388 Y-0.900 F3600.000
G1 F900
G1 X19.612 Y-0.900 E7.55382
G1 X19.612 Y1.500 E7.65428
G1 X0.388 Y1.500 E8.45898
G1 X0.388 Y-0.840 E8.55694
G1 X0.788 Y-0.883 F3600.000
G1 E6.55694 F18000.00000
G92 E0
G1 Z2.300 F3600.000
G1 X6.300 Y6.100 F3600.000
G1 Z0.300 F3600.000
G1 E2.00000 F18000.00000
G1 F900
G1 X6.700 Y6.100 E2.01674
G1 X6.700 Y6.500 E2.03349
G1 X6.300 Y6.500 E2.05023
G1 X6.300 Y6.160 E2.06446
G1 X6.686 Y6.204 F3600.000
M106 S255
G1 Z0.500 F3600.000
G1 E0.06446 F18000.00000
G92 E0
G1 Z2.500 F3600.000
G1 X0.200 Y9.100 F3600.000
G1 Z0.500 F3600.000
G1 E2.00000 F18000.00000
G1 F900
G1 X0.200 Y9.500 E2.01188
G1 X-0.200 Y9.500 E2.02375
G1 X-0.200 Y9.100 E2.03563
G1 X0.140 Y9.100 E2.04572
G1 X0.096 Y9.486 F3600.000
G1 E0.04572 F18000.00000
G92 E0
G1 Z2.500 F3600.000
G1 X-6.300 Y6.500 F3600.000
G1 Z0.500 F3600.000
G1 E2.00000 F18000.00000
G1 F900
G1 X-6.700 Y6.500 E2.01188
G1 X-6.700 Y6.100 E2.02375
G1 X-6.300 Y6.100 E2.03563
G1 X-6.300 Y6.440 E2.04572
G1 X-6.686 Y6.396 F3600.000
G1 E0.04572 F18000.00000
G92 E0
G1 Z2.500 F3600.000
G1 X-4.371 Y0.429 F3600.000
G1 Z0.500 F3600.000
G1 E2.00000 F18000.00000
G1 F900
G1 X-18.629 Y0.429 E2.42332
G1 X-18.629 Y0.171 E2.43097
G1 X-4.371 Y0.171 E2.85430
G1 X-4.371 Y0.369 E2.86016
G1 X-4.014 Y0.786 F3600.000
G1 F900
G1 X-18.986 Y0.786 E3.30469
G1 X-18.986 Y-0.186 E3.33354
G1 X-4.014 Y-0.186 E3.77807
G1 X-4.014 Y0.726 E3.80514
G1 X-3.657 Y1.143 F3600.000
G1 F900
G1 X-19.343 Y1.143 E4.27087
G1 X-19.343 Y-0.543 E4.32092
G1 X-3.657 Y-0.543 E4.78666
G1 X-3.657 Y1.083 E4.83493
G1 X-3.300 Y1.500 F3600.000
G1 F900
G1 X-19.700 Y1.500 E5.32187
G1 X-19.700 Y-0.900 E5.39313
G1 X-3.300 Y-0.900 E5.88006
G1 X-3.300 Y1.440 E5.94954
G1 X-3.700 Y1.481 F3600.000
G1 E3.94954 F18000.00000
G92 E0
G1 Z2.500 F3600.000
G1 X-6.800 Y-5.000 F3600.000
G1 Z0.500 F3600.000
G1 E2.00000 F18000.00000
G1 F900
G1 X-7.200 Y-5.000 E2.01188
G1 X-7.200 Y-5.400 E2.02375
G1 X-6.800 Y-5.400 E2.03563
G1 X-6.800 Y-5.060 E2.04572
G1 X-7.186 Y-5.104 F3600.000
G1 E0.04572 F18000.00000
G92 E0
G1 Z2.500 F3600.000
G1 X-0.200 Y-8.500 F3600.000
G1 Z0.500 F3600.000
G1 E2.00000 F18000.00000
G1 F900
G1 X-0.200 Y-8.900 E2.01188
G1 X0.200 Y-8.900 E2.02375
G1 X0.200 Y-8.500 E2.03563
G1 X-0.140 Y-8.500 E2.04572
G1 X-0.096 Y-8.886 F3600.000
G1 E0.04572 F18000.00000
G92 E0
G1 Z2.500 F3600.000
G1 X6.800 Y-5.400 F3600.000
G1 Z0.500 F3600.000
G1 E2.00000 F18000.00000
G1 F900
G1 X7.200 Y-5.400 E2.01188
G1 X7.200 Y-5.000 E2.02375
G1 X6.800 Y-5.000 E2.03563
G1 X6.800 Y-5.340 E2.04572
G1 X7.186 Y-5.296 F3600.000
G1 E0.04572 F18000.00000
G92 E0
G1 Z2.500 F3600.000
G1 X1.607 Y0.171 F3600.000
G1 Z0.500 F3600.000
G1 E2.00000 F18000.00000
G1 F900
G1 X18.393 Y0.171 E2.49843
G1 X18.393 Y0.429 E2.50607
G1 X1.607 Y0.429 E3.00450
G1 X1.607 Y0.231 E3.01036
G1 X1.249 Y-0.186 F3600.000
G1 F900
G1 X18.751 Y-0.186 E3.52999
G1 X18.751 Y0.786 E3.55884
G1 X1.249 Y0.786 E4.07847
G1 X1.249 Y-0.126 E4.10554
G1 X0.892 Y-0.543 F3600.000
G1 F900
G1 X19.108 Y-0.543 E4.64638
G1 X19.108 Y1.143 E4.69643
G1 X0.892 Y1.143 E5.23727
G1 X0.892 Y-0.483 E5.28554
G1 X0.535 Y-0.900 F3600.000
G1 F450
G1 X19.465 Y-0.900 E5.84758
G1 X19.465 Y1.500 E5.91884
G1 X0.535 Y1.500 E6.48088
G1 X0.535 Y-0.840 E6.55035
G1 X0.935 Y-0.883 F3600.000
G1 E4.55035 F18000.00000
G92 E0
G1 Z2.500 F3600.000
G1 X6.300 Y6.100 F3600.000
G1 Z0.500 F3600.000
G1 E2.00000 F18000.00000
G1 F900
G1 X6.700 Y6.100 E2.01188
G1 X6.700 Y6.500 E2.02375
G1 X6.300 Y6.500 E2.03563
G1 X6.300 Y6.160 E2.04572
G1 X6.686 Y6.204 F3600.000
G1 Z0.700 F3600.000
G1 E0.04572 F18000.00000
G92 E0
G1 Z2.700 F3600.000
G1 X0.200 Y9.100 F3600.000
G1 Z0.700 F3600.000
G1 E2.00000 F18000.00000
G1 F900
G1 X0.200 Y9.500 E2.01188
G1 X-0.200 Y9.500 E2.02375
G1 X-0.200 Y9.100 E2.03563
G1 X0.140 Y9.100 E2.04572
G1 X0.096 Y9.486 F3600.000
G1 E0.04572 F18000.00000
G92 E0
G1 Z2.700 F3600.000
G1 X-6.300 Y6.500 F3600.000
G1 Z0.700 F3600.000
G1 E2.00000 F18000.00000
G1 F900
G1 X-6.700 Y6.500 E2.01188
G1 X-6.700 Y6.100 E2.02375
G1 X-6.300 Y6.100 E2.03563
G1 X-6.300 Y6.440 E2.04572
G1 X-6.686 Y6.396 F3600.000
G1 E0.04572 F18000.00000
G92 E0
G1 Z2.700 F3600.000
G1 X-4.371 Y0.429 F3600.000
G1 Z0.700 F3600.000
G1 E2.00000 F18000.00000
G1 F900
G1 X-18.629 Y0.429 E2.42332
G1 X-18.629 Y0.171 E2.43097
G1 X-4.371 Y0.171 E2.85430
G1 X-4.371 Y0.369 E2.86016
G1 X-4.014 Y0.786 F3600.000
G1 F900
G1 X-18.986 Y0.786 E3.30469
G1 X-18.986 Y-0.186 E3.33354
G1 X-4.014 Y-0.186 E3.77807
G1 X-4.014 Y0.726 E3.80514
G1 X-3.657 Y1.143 F3600.000
G1 F900
G1 X-19.343 Y1.143 E4.27087
G1 X-19.343 Y-0.543 E4.32092
G1 X-3.657 Y-0.543 E4.78666
G1 X-3.657 Y1.083 E4.83493
G1 X-3.300 Y1.500 F3600.000
G1 F900
G1 X-19.700 Y1.500 E5.32187
G1 X-19.700 Y-0.900 E5.39313
G1 X-3.300 Y-0.900 E5.88006
G1 X-3.300 Y1.440 E5.94954
G1 X-3.700 Y1.481 F3600.000
G1 E3.94954 F18000.00000
G92 E0
G1 Z2.700 F3600.000
G1 X-6.800 Y-5.000 F3600.000
G1 Z0.700 F3600.000
G1 E2.00000 F18000.00000
G1 F900
G1 X-7.200 Y-5.000 E2.01188
G1 X-7.200 Y-5.400 E2.02375
G1 X-6.800 Y-5.400 E2.03563
G1 X-6.800 Y-5.060 E2.04572
G1 X-7.186 Y-5.104 F3600.000
G1 E0.04572 F18000.00000
G92 E0
G1 Z2.700 F3600.000
G1 X-0.200 Y-8.500 F3600.000
G1 Z0.700 F3600.000
G1 E2.00000 F18000.00000
G1 F900
G1 X-0.200 Y-8.900 E2.01188
G1 X0.200 Y-8.900 E2.02375
G1 X0.200 Y-8.500 E2.03563
G1 X-0.140 Y-8.500 E2.04572
G1 X-0.096 Y-8.886 F3600.000
G1 E0.04572 F18000.00000
G92 E0
G1 Z2.700 F3600.000
G1 X6.800 Y-5.400 F3600.000
G1 Z0.700 F3600.000
G1 E2.00000 F18000.00000
G1 F900
G1 X7.200 Y-5.400 E2.01188
G1 X7.200 Y-5.000 E2.02375
G1 X6.800 Y-5.000 E2.03563
G1 X6.800 Y-5.340 E2.04572
G1 X7.186 Y-5.296 F3600.000
G1 E0.04572 F18000.00000
G92 E0
G1 Z2.700 F3600.000
G1 X1.724 Y0.171 F3600.000
G1 Z0.700 F3600.000
G1 E2.00000 F18000.00000
G1 F900
G1 X18.276 Y0.171 E2.49144
G1 X18.276 Y0.429 E2.49909
G1 X1.724 Y0.429 E2.99053
G1 X1.724 Y0.231 E2.99639
G1 X1.367 Y-0.186 F3600.000
G1 F900
G1 X18.633 Y-0.186 E3.50903
G1 X18.633 Y0.786 E3.53789
G1 X1.367 Y0.786 E4.05053
G1 X1.367 Y-0.126 E4.07760
G1 X1.010 Y-0.543 F3600.000
G1 F900
G1 X18.990 Y-0.543 E4.61145
G1 X18.990 Y1.143 E4.66150
G1 X1.010 Y1.143 E5.19535
G1 X1.010 Y-0.483 E5.24362
G1 X0.653 Y-0.900 F3600.000
G1 F450
G1 X19.347 Y-0.900 E5.79868
G1 X19.347 Y1.500 E5.86993
G1 X0.653 Y1.500 E6.42499
G1 X0.653 Y-0.840 E6.49446
G1 X1.053 Y-0.883 F3600.000
G1 E4.49446 F18000.00000
G92 E0
G1 Z2.700 F3600.000
G1 X6.300 Y6.100 F3600.000
G1 Z0.700 F3600.000
G1 E2.00000 F18000.00000
G1 F900
G1 X6.700 Y6.100 E2.01188
G1 X6.700 Y6.500 E2.02375
G1 X6.300 Y6.500 E2.03563
G1 X6.300 Y6.160 E2.04572
G1 X6.686 Y6.204 F3600.000
G1 Z0.900 F3600.000
G1 E0.04572 F18000.00000
G92 E0
G1 Z2.900 F3600.000
G1 X0.200 Y9.100 F3600.000
G1 Z0.900 F3600.000
G1 E2.00000 F18000.00000
G1 F900
G1 X0.200 Y9.500 E2.01188
G1 X-0.200 Y9.500 E2.02375
G1 X-0.200 Y9.100 E2.03563
G1 X0.140 Y9.100 E2.04572
G1 X0.096 Y9.486 F3600.000
G1 E0.04572 F18000.00000
G92 E0
G1 Z2.900 F3600.000
G1 X-6.300 Y6.500 F3600.000
G1 Z0.900 F3600.000
G1 E2.00000 F18000.00000
G1 F900
G1 X-6.700 Y6.500 E2.01188
G1 X-6.700 Y6.100 E2.02375
G1 X-6.300 Y6.100 E2.03563
G1 X-6.300 Y6.440 E2.04572
G1 X-6.686 Y6.396 F3600.000
G1 E0.04572 F18000.00000
G92 E0
G1 Z2.900 F3600.000
G1 X-4.371 Y0.429 F3600.000
G1 Z0.900 F3600.000
G1 E2.00000 F18000.00000
G1 F900
G1 X-18.629 Y0.429 E2.42332
G1 X-18.629 Y0.171 E2.43097
G1 X-4.371 Y0.171 E2.85430
G1 X-4.371 Y0.369 E2.86016
G1 X-4.014 Y0.786 F3600.000
G1 F900
G1 X-18.986 Y0.786 E3.30469
G1 X-18.986 Y-0.186 E3.33354
G1 X-4.014 Y-0.186 E3.77807
G1 X-4.014 Y0.726 E3.80514
G1 X-3.657 Y1.143 F3600.000
G1 F900
G1 X-19.343 Y1.143 E4.27087
G1 X-19.343 Y-0.543 E4.32092
G1 X-3.657 Y-0.543 E4.78666
G1 X-3.657 Y1.083 E4.83493
G1 X-3.300 Y1.500 F3600.000
G1 F900
G1 X-19.700 Y1.500 E5.32187
G1 X-19.700 Y-0.900 E5.39313
G1 X-3.300 Y-0.900 E5.88006
G1 X-3.300 Y1.440 E5.94954
G1 X-3.700 Y1.481 F3600.000
G1 E3.94954 F18000.00000
G92 E0
G1 Z2.900 F3600.000
G1 X-6.800 Y-5.000 F3600.000
G1 Z0.900 F3600.000
G1 E2.00000 F18000.00000
G1 F900
G1 X-7.200 Y-5.000 E2.01188
G1 X-7.200 Y-5.400 E2.02375
G1 X-6.800 Y-5.400 E2.03563
G1 X-6.800 Y-5.060 E2.04572
G1 X-7.186 Y-5.104 F3600.000
G1 E0.04572 F18000.00000
G92 E0
G1 Z2.900 F3600.000
G1 X-0.200 Y-8.500 F3600.000
G1 Z0.900 F3600.000
G1 E2.00000 F18000.00000
G1 F900
G1 X-0.200 Y-8.900 E2.01188
G1 X0.200 Y-8.900 E2.02375
G1 X0.200 Y-8.500 E2.03563
G1 X-0.140 Y-8.500 E2.04572
G1 X-0.096 Y-8.886 F3600.000
G1 E0.04572 F18000.00000
G92 E0
G1 Z2.900 F3600.000
G1 X6.800 Y-5.400 F3600.000
G1 Z0.900 F3600.000
G1 E2.00000 F18000.00000
G1 F900
G1 X7.200 Y-5.400 E2.01188
G1 X7.200 Y-5.000 E2.02375
G1 X6.800 Y-5.000 E2.03563
G1 X6.800 Y-5.340 E2.04572
G1 X7.186 Y-5.296 F3600.000
G1 E0.04572 F18000.00000
G92 E0
G1 Z2.900 F3600.000
G1 X1.842 Y0.171 F3600.000
G1 Z0.900 F3600.000
G1 E2.00000 F18000.00000
G1 F900
G1 X18.158 Y0.171 E2.48445
G1 X18.158 Y0.429 E2.49210
G1 X1.842 Y0.429 E2.97655
G1 X1.842 Y0.231 E2.98242
G1 X1.485 Y-0.186 F3600.000
G1 F900
G1 X18.515 Y-0.186 E3.48808
G1 X18.515 Y0.786 E3.51693
G1 X1.485 Y0.786 E4.02258
G1 X1.485 Y-0.126 E4.04965
G1 X1.128 Y-0.543 F3600.000
G1 F900
G1 X18.872 Y-0.543 E4.57652
G1 X18.872 Y1.143 E4.62657
G1 X1.128 Y1.143 E5.15343
G1 X1.128 Y-0.483 E5.20171
G1 X0.771 Y-0.900 F3600.000
G1 F450
G1 X19.229 Y-0.900 E5.74977
G1 X19.229 Y1.500 E5.82103
G1 X0.771 Y1.500 E6.36910
G1 X0.771 Y-0.840 E6.43858
G1 X1.170 Y-0.883 F3600.000
G1 E4.43858 F18000.00000
G92 E0
G1 Z2.900 F3600.000
G1 X6.300 Y6.100 F3600.000
G1 Z0.900 F3600.000
G1 E2.00000 F18000.00000
G1 F900
G1 X6.700 Y6.100 E2.01188
G1 X6.700 Y6.500 E2.02375
G1 X6.300 Y6.500 E2.03563
G1 X6.300 Y6.160 E2.04572
G1 X6.686 Y6.204 F3600.000
G1 Z1.100 F3600.000
G1 E0.04572 F18000.00000
G92 E0
G1 Z3.100 F3600.000
G1 X0.200 Y9.100 F3600.000
G1 Z1.100 F3600.000
G1 E2.00000 F18000.00000
G1 F900
G1 X0.200 Y9.500 E2.01188
G1 X-0.200 Y9.500 E2.02375
G1 X-0.200 Y9.100 E2.03563
G1 X0.140 Y9.100 E2.04572
G1 X0.096 Y9.486 F3600.000
G1 E0.04572 F18000.00000
G92 E0
G1 Z3.100 F3600.000
G1 X-6.300 Y6.500 F3600.000
G1 Z1.100 F3600.000
G1 E2.00000 F18000.00000
G1 F900
G1 X-6.700 Y6.500 E2.01188
G1 X-6.700 Y6.100 E2.02375
G1 X-6.300 Y6.100 E2.03563
G1 X-6.300 Y6.440 E2.04572
G1 X-6.686 Y6.396 F3600.000
G1 E0.04572 F18000.00000
G92 E0
G1 Z3.100 F3600.000
G1 X-4.371 Y0.429 F3600.000
G1 Z1.100 F3600.000
G1 E2.00000 F18000.00000
G1 F900
G1 X-18.629 Y0.429 E2.42332
G1 X-18.629 Y0.171 E2.43097
G1 X-4.371 Y0.171 E2.85430
G1 X-4.371 Y0.369 E2.86016
G1 X-4.014 Y0.786 F3600.000
G1 F900
G1 X-18.986 Y0.786 E3.30469
G1 X-18.986 Y-0.186 E3.33354
G1 X-4.014 Y-0.186 E3.77807
G1 X-4.014 Y0.726 E3.80514
G1 X-3.657 Y1.143 F3600.000
G1 F900
G1 X-19.343 Y1.143 E4.27087
G1 X-19.343 Y-0.543 E4.32092
G1 X-3.657 Y-0.543 E4.78666
G1 X-3.657 Y1.083 E4.83493
G1 X-3.300 Y1.500 F3600.000
G1 F900
G1 X-19.700 Y1.500 E5.32187
G1 X-19.700 Y-0.900 E5.39313
G1 X-3.300 Y-0.900 E5.88006
G1 X-3.300 Y1.440 E5.94954
G1 X-3.700 Y1.481 F3600.000
G1 E3.94954 F18000.00000
G92 E0
G1 Z3.100 F3600.000
G1 X-6.800 Y-5.000 F3600.000
G1 Z1.100 F3600.000
G1 E2.00000 F18000.00000
G1 F900
G1 X-7.200 Y-5.000 E2.01188
G1 X-7.200 Y-5.400 E2.02375
G1 X-6.800 Y-5.400 E2.03563
G1 X-6.800 Y-5.060 E2.04572
G1 X-7.186 Y-5.104 F3600.000
G1 E0.04572 F18000.00000
G92 E0
G1 Z3.100 F3600.000
G1 X-0.200 Y-8.500 F3600.000
G1 Z1.100 F3600.000
G1 E2.00000 F18000.00000
G1 F900
G1 X-0.200 Y-8.900 E2.01188
G1 X0.200 Y-8.900 E2.02375
G1 X0.200 Y-8.500 E2.03563
G1 X-0.140 Y-8.500 E2.04572
G1 X-0.096 Y-8.886 F3600.000
G1 E0.04572 F18000.00000
G92 E0
G1 Z3.100 F3600.000
G1 X6.800 Y-5.400 F3600.000
G1 Z1.100 F3600.000
G1 E2.00000 F18000.00000
G1 F900
G1 X7.200 Y-5.400 E2.01188
G1 X7.200 Y-5.000 E2.02375
G1 X6.800 Y-5.000 E2.03563
G1 X6.800 Y-5.340 E2.04572
G1 X7.186 Y-5.296 F3600.000
G1 E0.04572 F18000.00000
G92 E0
G1 Z3.100 F3600.000
G1 X1.959 Y0.171 F3600.000
G1 Z1.100 F3600.000
G1 E2.00000 F18000.00000
G1 F900
G1 X18.041 Y0.171 E2.47747
G1 X18.041 Y0.429 E2.48511
G1 X1.959 Y0.429 E2.96258
G1 X1.959 Y0.231 E2.96845
G1 X1.602 Y-0.186 F3600.000
G1 F900
G1 X18.398 Y-0.186 E3.46712
G1 X18.398 Y0.786 E3.49597
G1 X1.602 Y0.786 E3.99464
G1 X1.602 Y-0.126 E4.02171
G1 X1.245 Y-0.543 F3600.000
G1 F900
G1 X18.755 Y-0.543 E4.54158
G1 X18.755 Y1.143 E4.59164
G1 X1.245 Y1.143 E5.11152
G1 X1.245 Y-0.483 E5.15979
G1 X0.888 Y-0.900 F3600.000
G1 F450
G1 X19.112 Y-0.900 E5.70087
G1 X19.112 Y1.500 E5.77213
G1 X0.888 Y1.500 E6.31321
G1 X0.888 Y-0.840 E6.38269
G1 X1.288 Y-0.883 F3600.000
G1 E4.38269 F18000.00000
G92 E0
G1 Z3.100 F3600.000
G1 X6.300 Y6.100 F3600.000
G1 Z1.100 F3600.000
G1 E2.00000 F18000.00000
G1 F900
G1 X6.700 Y6.100 E2.01188
G1 X6.700 Y6.500 E2.02375
